;FLAVOR:Marlin
;TIME:2243
;Filament used: 1.38468m
;Layer height: 0.2
;MINX:76.05
;MINY:82.68
;MINZ:0.2
;MAXX:143.95
;MAXY:137.32
;MAXZ:10.2
;Generated with Cura_SteamEngine 4.11.0
M140 S60
M105
M190 S60
M104 S200
M105
M109 S200
M82 ;absolute extrusion mode
; Ender 3 Custom Start G-code
G92 E0 ; Reset Extruder
G28 ; Home all axes
G1 Z2.0 F3000 ; Move Z Axis up little to prevent scratching of Heat Bed
G1 X0.1 Y20 Z0.3 F5000.0 ; Move to start position
G1 X0.1 Y200.0 Z0.3 F1500.0 E15 ; Draw the first line
G1 X0.4 Y200.0 Z0.3 F5000.0 ; Move to side a little
G1 X0.4 Y20 Z0.3 F1500.0 E30 ; Draw the second line
G92 E0 ; Reset Extruder
G1 Z2.0 F3000 ; Move Z Axis up little to prevent scratching of Heat Bed
G1 X5 Y20 Z0.3 F5000.0 ; Move over to prevent blob squish
G92 E0
G92 E0
G1 F1500 E-6.5
;LAYER_COUNT:51
;LAYER:0
M107
G0 F6000 X79.943 Y91.418 Z0.2
;TYPE:SKIRT
G1 F1500 E0
G1 F1200 X80.683 Y90.842 E0.03119
G1 X81.432 Y90.354 E0.06092
G1 X81.819 Y90.124 E0.0759
G1 X83.615 Y89.086 E0.14489
G1 X85.718 Y87.79 E0.22705
G1 X87.841 Y86.396 E0.31152
G1 X89.368 Y85.327 E0.37352
G1 X90.034 Y84.876 E0.40027
G1 X90.832 Y84.384 E0.43145
G1 X91.377 Y84.099 E0.45191
G1 X91.713 Y83.935 E0.46435
G1 X92.573 Y83.56 E0.49555
G1 X93.536 Y83.238 E0.52932
G1 X93.818 Y83.158 E0.53907
G1 X94.253 Y83.044 E0.55403
G1 X95.172 Y82.859 E0.58521
G1 X95.721 Y82.787 E0.60362
G1 X96.025 Y82.755 E0.61379
G1 X96.539 Y82.713 E0.63094
G1 X97.053 Y82.693 E0.64805
G1 X97.991 Y82.68 E0.67925
G1 X98.583 Y82.68 E0.69894
G1 X99.421 Y82.691 E0.72682
G1 X100.045 Y82.718 E0.74759
G1 X100.324 Y82.738 E0.7569
G1 X100.874 Y82.789 E0.77527
G1 X103.484 Y83.018 E0.86241
G1 X106.018 Y83.169 E0.94684
G1 X108.531 Y83.246 E1.03046
G1 X111.061 Y83.253 E1.11461
G1 X113.542 Y83.189 E1.19716
G1 X116.041 Y83.054 E1.28039
G1 X119.364 Y82.768 E1.39133
G1 X119.892 Y82.72 E1.40896
G1 X120.512 Y82.693 E1.4296
G1 X121.451 Y82.68 E1.46084
G1 X122.206 Y82.681 E1.48595
G1 X122.881 Y82.691 E1.5084
G1 X123.47 Y82.716 E1.52801
G1 X123.718 Y82.733 E1.53628
G1 X124.079 Y82.763 E1.54832
G1 X124.197 Y82.775 E1.55227
G1 X125.125 Y82.91 E1.58346
G1 X125.774 Y83.053 E1.60556
G1 X126.107 Y83.137 E1.61699
G1 X127.006 Y83.405 E1.64819
G1 X127.94 Y83.776 E1.68161
G1 X128.257 Y83.919 E1.69318
G1 X129.095 Y84.341 E1.72439
G1 X129.894 Y84.833 E1.75559
G1 X130.65 Y85.344 E1.78594
G1 X131.9 Y86.219 E1.83669
G1 X134.005 Y87.61 E1.92061
G1 X136.16 Y88.947 E2.00496
G1 X137.589 Y89.788 E2.06011
G1 X138.429 Y90.272 E2.09235
G1 X139.221 Y90.775 E2.12356
G1 X139.967 Y91.342 E2.15473
G1 X140.663 Y91.972 E2.18595
G1 X141.302 Y92.658 E2.21713
G1 X141.88 Y93.396 E2.24831
G1 X142.394 Y94.181 E2.27952
G1 X142.838 Y95.007 E2.31071
G1 X143.211 Y95.868 E2.34192
G1 X143.509 Y96.757 E2.3731
G1 X143.73 Y97.668 E2.40428
G1 X143.873 Y98.595 E2.43548
G1 X143.935 Y99.467 E2.46455
G1 X143.945 Y99.792 E2.47537
G1 X143.95 Y100.13 E2.48661
G1 X143.949 Y119.615 E3.13468
G1 X143.939 Y120.345 E3.15897
G1 X143.886 Y121.281 E3.19015
G1 X143.754 Y122.21 E3.22136
G1 X143.543 Y123.123 E3.25252
G1 X143.255 Y124.016 E3.28373
G1 X142.892 Y124.881 E3.31493
G1 X142.456 Y125.711 E3.34612
G1 X141.952 Y126.502 E3.37731
G1 X141.382 Y127.247 E3.40851
G1 X140.75 Y127.94 E3.43971
G1 X140.062 Y128.577 E3.47089
G1 X139.322 Y129.153 E3.50208
G1 X138.594 Y129.63 E3.53103
G1 X138.181 Y129.876 E3.54702
G1 X136.404 Y130.903 E3.61528
G1 X134.261 Y132.223 E3.69899
G1 X132.164 Y133.6 E3.78243
G1 X130.641 Y134.666 E3.84426
G1 X129.975 Y135.118 E3.87103
G1 X129.177 Y135.611 E3.90223
G1 X128.611 Y135.907 E3.92348
G1 X128.274 Y136.071 E3.93594
G1 X127.414 Y136.445 E3.96713
G1 X126.473 Y136.76 E4.00014
G1 X126.192 Y136.84 E4.00986
G1 X125.747 Y136.956 E4.02515
G1 X124.828 Y137.141 E4.05633
G1 X124.279 Y137.213 E4.07475
G1 X123.975 Y137.245 E4.08491
G1 X123.461 Y137.287 E4.10207
G1 X122.947 Y137.307 E4.11918
G1 X122.009 Y137.32 E4.15038
G1 X121.254 Y137.319 E4.17549
G1 X120.579 Y137.309 E4.19794
G1 X119.955 Y137.282 E4.21871
G1 X119.676 Y137.262 E4.22802
G1 X119.126 Y137.211 E4.24639
G1 X116.516 Y136.982 E4.33353
G1 X113.982 Y136.831 E4.41796
G1 X111.469 Y136.754 E4.50158
G1 X108.939 Y136.747 E4.58573
G1 X106.458 Y136.811 E4.66828
G1 X103.959 Y136.946 E4.75152
G1 X100.636 Y137.232 E4.86245
G1 X100.108 Y137.28 E4.88008
G1 X99.488 Y137.307 E4.90072
G1 X98.549 Y137.32 E4.93196
G1 X97.794 Y137.319 E4.95707
G1 X97.119 Y137.309 E4.97952
G1 X96.53 Y137.284 E4.99913
G1 X96.282 Y137.267 E5.0074
G1 X95.921 Y137.237 E5.01945
G1 X95.803 Y137.225 E5.02339
G1 X94.875 Y137.09 E5.05458
G1 X94.226 Y136.947 E5.07669
G1 X93.893 Y136.863 E5.08811
G1 X92.994 Y136.595 E5.11931
G1 X92.06 Y136.224 E5.15274
G1 X91.743 Y136.081 E5.1643
G1 X90.905 Y135.659 E5.19551
G1 X90.106 Y135.167 E5.22672
G1 X89.35 Y134.656 E5.25707
G1 X88.1 Y133.781 E5.30782
G1 X85.995 Y132.39 E5.39173
G1 X83.84 Y131.053 E5.47608
G1 X82.364 Y130.184 E5.53305
G1 X81.563 Y129.722 E5.56381
G1 X80.771 Y129.219 E5.59501
G1 X80.025 Y128.651 E5.6262
G1 X79.331 Y128.021 E5.65737
G1 X78.692 Y127.334 E5.68858
G1 X78.114 Y126.595 E5.71978
G1 X77.602 Y125.81 E5.75096
G1 X77.158 Y124.984 E5.78215
G1 X76.786 Y124.123 E5.81334
G1 X76.488 Y123.233 E5.84456
G1 X76.268 Y122.322 E5.87573
G1 X76.126 Y121.395 E5.90692
G1 X76.065 Y120.533 E5.93566
G1 X76.055 Y120.209 E5.94644
G1 X76.05 Y119.87 E5.95772
G1 X76.051 Y100.35 E6.60696
G1 X76.061 Y99.648 E6.63031
G1 X76.114 Y98.712 E6.66149
G1 X76.247 Y97.784 E6.69267
G1 X76.459 Y96.87 E6.72388
G1 X76.747 Y95.977 E6.75509
G1 X77.111 Y95.113 E6.78627
G1 X77.547 Y94.282 E6.81748
G1 X78.052 Y93.492 E6.84867
G1 X78.622 Y92.748 E6.87984
G1 X79.254 Y92.055 E6.91103
G1 X79.943 Y91.418 E6.94224
G0 F6000 X80.331 Y91.615
G1 F1200 X81.067 Y91.062 E6.97286
G1 X81.637 Y90.697 E6.99538
G1 X82.02 Y90.471 E7.01017
G1 X83.779 Y89.455 E7.07773
G1 X85.95 Y88.116 E7.16257
G1 X88.054 Y86.736 E7.24626
G1 X89.592 Y85.658 E7.30872
G1 X90.258 Y85.207 E7.33548
G1 X91.042 Y84.724 E7.3661
G1 X91.552 Y84.458 E7.38523
G1 X91.888 Y84.294 E7.39767
G1 X92.733 Y83.927 E7.42831
G1 X93.645 Y83.622 E7.4603
G1 X93.927 Y83.542 E7.47005
G1 X94.348 Y83.432 E7.48452
G1 X95.251 Y83.252 E7.51514
G1 X95.763 Y83.185 E7.53232
G1 X96.067 Y83.153 E7.54248
G1 X96.564 Y83.113 E7.55907
G1 X97.059 Y83.093 E7.57554
G1 X97.991 Y83.08 E7.60655
G1 X98.583 Y83.08 E7.62624
G1 X99.415 Y83.091 E7.65391
G1 X100.016 Y83.117 E7.67392
G1 X100.295 Y83.137 E7.68322
G1 X100.601 Y83.164 E7.69344
G1 X100.8 Y83.184 E7.70009
G1 X103.498 Y83.42 E7.79017
G1 X105.983 Y83.568 E7.87297
G1 X108.518 Y83.646 E7.95732
G1 X111.035 Y83.653 E8.04104
G1 X113.609 Y83.587 E8.12668
G1 X116.066 Y83.454 E8.20852
G1 X119.331 Y83.173 E8.31751
G1 X119.523 Y83.153 E8.32393
G1 X119.979 Y83.115 E8.33915
G1 X120.518 Y83.093 E8.3571
G1 X121.451 Y83.08 E8.38813
G1 X122.2 Y83.081 E8.41304
G1 X122.875 Y83.091 E8.4355
G1 X123.443 Y83.115 E8.4544
G1 X123.691 Y83.132 E8.46267
G1 X124.038 Y83.161 E8.47425
G1 X124.156 Y83.173 E8.4782
G1 X125.067 Y83.306 E8.50882
G1 X125.677 Y83.441 E8.5296
G1 X126.01 Y83.525 E8.54102
G1 X126.892 Y83.789 E8.57164
G1 X127.776 Y84.141 E8.60329
G1 X128.093 Y84.284 E8.61486
G1 X128.915 Y84.698 E8.64547
G1 X129.67 Y85.164 E8.67498
G1 X130.579 Y85.78 E8.7115
G1 X131.697 Y86.564 E8.75692
G1 X133.795 Y87.951 E8.84057
G1 X135.958 Y89.293 E8.92523
G1 X137.407 Y90.146 E8.98115
G1 X138.229 Y90.619 E9.0127
G1 X139.006 Y91.113 E9.04332
G1 X139.738 Y91.672 E9.07396
G1 X140.418 Y92.292 E9.10456
G1 X141.042 Y92.969 E9.13518
G1 X141.604 Y93.698 E9.1658
G1 X142.101 Y94.473 E9.19642
G1 X142.529 Y95.288 E9.22704
G1 X142.885 Y96.137 E9.25766
G1 X143.166 Y97.014 E9.28829
G1 X143.37 Y97.912 E9.31892
G1 X143.495 Y98.824 E9.34953
G1 X143.535 Y99.479 E9.37136
G1 X143.545 Y99.804 E9.38217
G1 X143.55 Y100.13 E9.39302
G1 X143.549 Y119.609 E10.04089
G1 X143.539 Y120.339 E10.06518
G1 X143.486 Y121.258 E10.09579
G1 X143.354 Y122.169 E10.12641
G1 X143.144 Y123.066 E10.15705
G1 X142.856 Y123.94 E10.18766
G1 X142.493 Y124.787 E10.21831
G1 X142.059 Y125.598 E10.2489
G1 X141.556 Y126.369 E10.27952
G1 X140.987 Y127.093 E10.31014
G1 X140.358 Y127.766 E10.34078
G1 X139.673 Y128.381 E10.3714
G1 X138.937 Y128.934 E10.40202
G1 X138.389 Y129.286 E10.42368
G1 X137.98 Y129.529 E10.43951
G1 X136.215 Y130.549 E10.50731
G1 X134.054 Y131.881 E10.59174
G1 X131.951 Y133.26 E10.67538
G1 X130.417 Y134.335 E10.73769
G1 X129.751 Y134.787 E10.76446
G1 X128.967 Y135.27 E10.79508
G1 X128.436 Y135.547 E10.815
G1 X128.099 Y135.711 E10.82747
G1 X127.255 Y136.078 E10.85808
G1 X126.363 Y136.375 E10.88935
G1 X126.082 Y136.455 E10.89907
G1 X125.652 Y136.568 E10.91385
G1 X124.749 Y136.748 E10.94448
G1 X124.237 Y136.815 E10.96165
G1 X123.933 Y136.847 E10.97182
G1 X123.436 Y136.887 E10.9884
G1 X122.941 Y136.907 E11.00488
G1 X122.009 Y136.92 E11.03588
G1 X121.26 Y136.919 E11.06079
G1 X120.585 Y136.909 E11.08325
G1 X119.984 Y136.883 E11.10326
G1 X119.705 Y136.863 E11.11256
G1 X119.399 Y136.836 E11.12278
G1 X119.2 Y136.816 E11.12943
G1 X116.502 Y136.58 E11.21951
G1 X114.017 Y136.432 E11.3023
G1 X111.482 Y136.354 E11.38666
G1 X108.965 Y136.347 E11.47037
G1 X106.391 Y136.413 E11.55601
G1 X103.934 Y136.546 E11.63785
G1 X100.669 Y136.827 E11.74685
G1 X100.477 Y136.847 E11.75327
G1 X100.021 Y136.885 E11.76849
G1 X99.482 Y136.907 E11.78643
G1 X98.549 Y136.92 E11.81747
G1 X97.8 Y136.919 E11.84238
G1 X97.125 Y136.909 E11.86483
G1 X96.557 Y136.885 E11.88374
G1 X96.309 Y136.868 E11.89201
G1 X95.962 Y136.839 E11.90359
G1 X95.844 Y136.827 E11.90753
G1 X94.933 Y136.694 E11.93816
G1 X94.323 Y136.559 E11.95894
G1 X93.99 Y136.475 E11.97036
G1 X93.108 Y136.211 E12.00098
G1 X92.224 Y135.859 E12.03263
G1 X91.907 Y135.716 E12.04419
G1 X91.085 Y135.302 E12.0748
G1 X90.33 Y134.836 E12.10431
G1 X89.421 Y134.22 E12.14084
G1 X88.303 Y133.436 E12.18625
G1 X86.205 Y132.049 E12.2699
G1 X84.042 Y130.707 E12.35457
G1 X82.647 Y129.886 E12.4084
G1 X81.763 Y129.376 E12.44235
G1 X80.986 Y128.881 E12.47299
G1 X80.255 Y128.321 E12.50362
G1 X79.576 Y127.7 E12.53422
G1 X78.953 Y127.023 E12.56482
G1 X78.391 Y126.293 E12.59546
G1 X77.894 Y125.518 E12.62608
G1 X77.467 Y124.703 E12.65669
G1 X77.112 Y123.853 E12.68732
G1 X76.832 Y122.976 E12.71794
G1 X76.629 Y122.078 E12.74857
G1 X76.505 Y121.166 E12.77918
G1 X76.465 Y120.521 E12.80067
G1 X76.455 Y120.197 E12.81145
G1 X76.45 Y119.87 E12.82233
G1 X76.451 Y100.356 E13.47137
G1 X76.461 Y99.654 E13.49472
G1 X76.514 Y98.735 E13.52534
G1 X76.647 Y97.824 E13.55596
G1 X76.858 Y96.928 E13.58657
G1 X77.146 Y96.053 E13.61721
G1 X77.509 Y95.207 E13.64783
G1 X77.944 Y94.396 E13.67844
G1 X78.448 Y93.625 E13.70908
G1 X79.016 Y92.901 E13.73968
G1 X79.646 Y92.229 E13.77032
G1 X80.331 Y91.615 E13.80092
G0 F6000 X80.719 Y91.816
G1 F1200 X81.451 Y91.286 E13.83097
G1 X81.842 Y91.041 E13.84632
G1 X82.22 Y90.817 E13.86094
G1 X84.009 Y89.784 E13.92965
G1 X86.149 Y88.464 E14.01327
G1 X88.281 Y87.065 E14.09809
G1 X89.817 Y85.989 E14.16046
G1 X90.483 Y85.538 E14.18722
G1 X91.252 Y85.065 E14.21724
G1 X91.728 Y84.818 E14.23508
G1 X92.064 Y84.654 E14.24752
G1 X92.892 Y84.294 E14.27754
G1 X93.754 Y84.007 E14.30776
G1 X94.036 Y83.927 E14.31751
G1 X94.443 Y83.821 E14.3315
G1 X95.329 Y83.645 E14.36154
G1 X95.805 Y83.583 E14.37751
G1 X96.109 Y83.551 E14.38768
G1 X96.589 Y83.512 E14.40369
G1 X97.065 Y83.493 E14.41954
G1 X97.991 Y83.48 E14.45034
G1 X98.583 Y83.48 E14.47003
G1 X99.409 Y83.491 E14.49751
G1 X99.987 Y83.516 E14.51675
G1 X100.266 Y83.536 E14.52605
G1 X100.561 Y83.562 E14.5359
G1 X100.797 Y83.586 E14.54379
G1 X103.439 Y83.817 E14.632
G1 X105.981 Y83.969 E14.7167
G1 X108.505 Y84.046 E14.80069
G1 X111.044 Y84.053 E14.88513
G1 X113.605 Y83.987 E14.97034
G1 X116.122 Y83.851 E15.05418
G1 X119.35 Y83.573 E15.16194
G1 X119.564 Y83.551 E15.1691
G1 X120.006 Y83.515 E15.18385
G1 X120.524 Y83.493 E15.20109
G1 X121.451 Y83.48 E15.23192
G1 X122.194 Y83.481 E15.25664
G1 X122.869 Y83.491 E15.27909
G1 X123.416 Y83.514 E15.2973
G1 X123.664 Y83.531 E15.30557
G1 X123.998 Y83.559 E15.31672
G1 X124.116 Y83.571 E15.32066
G1 X125.01 Y83.702 E15.35071
G1 X125.579 Y83.829 E15.3701
G1 X125.912 Y83.913 E15.38153
G1 X126.777 Y84.172 E15.41156
G1 X127.611 Y84.505 E15.44143
G1 X127.928 Y84.648 E15.45299
G1 X128.734 Y85.056 E15.48304
G1 X129.446 Y85.495 E15.51086
G1 X130.202 Y86.006 E15.54121
G1 X131.444 Y86.876 E15.59165
G1 X133.569 Y88.28 E15.67636
G1 X135.787 Y89.657 E15.76319
G1 X137.18 Y90.477 E15.81695
G1 X138.03 Y90.966 E15.84957
G1 X138.792 Y91.45 E15.87959
G1 X139.508 Y92.001 E15.90964
G1 X140.172 Y92.612 E15.93965
G1 X140.78 Y93.28 E15.96969
G1 X141.326 Y93.999 E15.99972
G1 X141.807 Y94.764 E16.02978
G1 X142.218 Y95.568 E16.05981
G1 X142.557 Y96.405 E16.08985
G1 X142.82 Y97.269 E16.11988
G1 X143.005 Y98.153 E16.14992
G1 X143.135 Y99.491 E16.19464
G1 X143.145 Y99.816 E16.20545
G1 X143.15 Y100.13 E16.2159
G1 X143.149 Y119.604 E16.8636
G1 X143.139 Y120.334 E16.88789
G1 X143.087 Y121.235 E16.9179
G1 X142.955 Y122.129 E16.94796
G1 X142.744 Y123.007 E16.97799
G1 X142.457 Y123.863 E17.00802
G1 X142.095 Y124.691 E17.03808
G1 X141.662 Y125.483 E17.0681
G1 X141.16 Y126.234 E17.09814
G1 X140.593 Y126.937 E17.12818
G1 X139.967 Y127.587 E17.1582
G1 X139.285 Y128.18 E17.18826
G1 X138.183 Y128.943 E17.23284
G1 X137.78 Y129.183 E17.24844
G1 X135.984 Y130.22 E17.31742
G1 X133.855 Y131.533 E17.40061
G1 X131.724 Y132.931 E17.48538
G1 X130.192 Y134.004 E17.54759
G1 X129.526 Y134.456 E17.57436
G1 X128.757 Y134.929 E17.60439
G1 X128.261 Y135.188 E17.623
G1 X127.924 Y135.352 E17.63546
G1 X127.096 Y135.71 E17.66547
G1 X126.254 Y135.99 E17.69498
G1 X125.973 Y136.07 E17.7047
G1 X125.557 Y136.179 E17.719
G1 X124.671 Y136.355 E17.74904
G1 X124.195 Y136.417 E17.76501
G1 X123.891 Y136.449 E17.77518
G1 X123.411 Y136.488 E17.79119
G1 X122.935 Y136.507 E17.80704
G1 X122.009 Y136.52 E17.83784
G1 X121.266 Y136.519 E17.86255
G1 X120.591 Y136.509 E17.88501
G1 X120.013 Y136.484 E17.90425
G1 X119.734 Y136.464 E17.91355
G1 X119.439 Y136.438 E17.9234
G1 X119.203 Y136.414 E17.93129
G1 X116.561 Y136.183 E18.0195
G1 X114.019 Y136.031 E18.1042
G1 X111.495 Y135.954 E18.18819
G1 X108.956 Y135.947 E18.27263
G1 X106.395 Y136.013 E18.35784
G1 X103.878 Y136.149 E18.44168
G1 X100.65 Y136.427 E18.54944
G1 X100.436 Y136.449 E18.5566
G1 X99.994 Y136.485 E18.57135
G1 X99.476 Y136.507 E18.58859
G1 X98.549 Y136.52 E18.61942
G1 X97.806 Y136.519 E18.64414
G1 X97.131 Y136.509 E18.66659
G1 X96.584 Y136.486 E18.6848
G1 X96.336 Y136.469 E18.69307
G1 X96.002 Y136.441 E18.70422
G1 X95.884 Y136.429 E18.70816
G1 X94.99 Y136.298 E18.73821
G1 X94.421 Y136.171 E18.7576
G1 X94.088 Y136.087 E18.76903
G1 X93.223 Y135.828 E18.79906
G1 X92.389 Y135.495 E18.82893
G1 X92.072 Y135.352 E18.84049
G1 X91.266 Y134.944 E18.87054
G1 X90.554 Y134.505 E18.89836
G1 X89.798 Y133.994 E18.92871
G1 X88.556 Y133.124 E18.97915
G1 X86.431 Y131.72 E19.06386
G1 X84.213 Y130.343 E19.15069
G1 X82.82 Y129.523 E19.20445
G1 X81.963 Y129.029 E19.23735
G1 X81.201 Y128.544 E19.26739
G1 X80.486 Y127.993 E19.29742
G1 X79.822 Y127.381 E19.32745
G1 X79.214 Y126.712 E19.35752
G1 X78.669 Y125.993 E19.38753
G1 X78.189 Y125.228 E19.41756
G1 X77.778 Y124.423 E19.44763
G1 X77.44 Y123.586 E19.47765
G1 X77.178 Y122.721 E19.50771
G1 X76.993 Y121.837 E19.53775
G1 X76.865 Y120.509 E19.58212
G1 X76.855 Y120.185 E19.5929
G1 X76.85 Y119.87 E19.60338
G1 X76.851 Y100.362 E20.25222
G1 X76.861 Y99.66 E20.27557
G1 X76.914 Y98.758 E20.30562
G1 X77.046 Y97.865 E20.33565
G1 X77.257 Y96.987 E20.36568
G1 X77.545 Y96.131 E20.39572
G1 X77.907 Y95.303 E20.42578
G1 X78.341 Y94.511 E20.45582
G1 X78.844 Y93.761 E20.48585
G1 X79.41 Y93.058 E20.51587
G1 X80.037 Y92.408 E20.54591
G1 X80.719 Y91.816 E20.57595
G1 F1500 E14.07595
;MESH:nano_holder_v2.stl
G0 F6000 X94.55 Y95.634
G0 X95.629 Y95.727
G0 X96.684 Y97.908
G0 X97.023 Y98.263
G0 X97.376 Y98.495
G0 X98.605 Y98.848
;TYPE:WALL-INNER
G1 F1500 E20.57595
G1 F1200 X99.02 Y98.734 E20.59026
G1 X99.095 Y98.703 E20.59296
G1 X99.458 Y98.511 E20.60662
G1 X99.777 Y98.242 E20.6205
G1 X99.837 Y98.184 E20.62327
G1 X100.104 Y97.831 E20.63799
G1 X100.295 Y97.411 E20.65334
G1 X100.332 Y97.24 E20.65916
G1 X100.38 Y97.016 E20.66678
G1 X100.391 Y96.936 E20.66946
