;FLAVOR:Marlin
;TIME:1513
;Filament used: 1.07869m
;Layer height: 0.16
;MINX:81
;MINY:85.5
;MINZ:0.2
;MAXX:139
;MAXY:134.5
;MAXZ:2.96
;Generated with Cura_SteamEngine 4.13.1
M140 S60
M105
M190 S60
M104 S200
M105
M109 S200
M82 ;absolute extrusion mode
; Ender 3 Custom Start G-code
G92 E0 ; Reset Extruder
G28 ; Home all axes
G1 Z2.0 F3000 ; Move Z Axis up little to prevent scratching of Heat Bed
G1 X0.1 Y20 Z0.3 F5000.0 ; Move to start position
G1 X0.1 Y200.0 Z0.3 F1500.0 E15 ; Draw the first line
G1 X0.4 Y200.0 Z0.3 F5000.0 ; Move to side a little
G1 X0.4 Y20 Z0.3 F1500.0 E30 ; Draw the second line
G92 E0 ; Reset Extruder
G1 Z2.0 F3000 ; Move Z Axis up little to prevent scratching of Heat Bed
G1 X5 Y20 Z0.3 F5000.0 ; Move over to prevent blob squish
G92 E0
G92 E0
G1 F1500 E-6.5
;LAYER_COUNT:16
;LAYER:0
M107
G0 F6000 X84.198 Y88.764 Z0.2
;TYPE:SKIRT
G1 F1500 E0
G1 F1200 X84.886 Y88.127 E0.03119
G1 X85.626 Y87.551 E0.06237
G1 X86.412 Y87.039 E0.09357
G1 X87.239 Y86.597 E0.12476
G1 X88.101 Y86.227 E0.15596
G1 X88.991 Y85.931 E0.18716
G1 X89.903 Y85.713 E0.21835
G1 X90.83 Y85.572 E0.24953
G1 X91.701 Y85.513 E0.27857
G1 X92.022 Y85.504 E0.28925
G1 X92.33 Y85.5 E0.29949
G1 X127.293 Y85.5 E1.46237
G1 X128.149 Y85.511 E1.49084
G1 X129.085 Y85.565 E1.52202
G1 X130.013 Y85.697 E1.5532
G1 X130.927 Y85.909 E1.58441
G1 X131.819 Y86.198 E1.61559
G1 X132.684 Y86.561 E1.64679
G1 X133.514 Y86.997 E1.67798
G1 X134.305 Y87.502 E1.70919
G1 X135.049 Y88.073 E1.74038
G1 X135.742 Y88.705 E1.77158
G1 X136.379 Y89.393 E1.80276
G1 X136.954 Y90.134 E1.83396
G1 X137.465 Y90.92 E1.86514
G1 X137.907 Y91.748 E1.89636
G1 X138.276 Y92.61 E1.92755
G1 X138.571 Y93.5 E1.95873
G1 X138.789 Y94.412 E1.98992
G1 X138.929 Y95.34 E2.02113
G1 X138.987 Y96.201 E2.04984
G1 X138.996 Y96.521 E2.06048
G1 X139 Y96.83 E2.07076
G1 X138.999 Y122.9 E2.93785
G1 X138.99 Y123.627 E2.96203
G1 X138.939 Y124.564 E2.99325
G1 X138.807 Y125.492 E3.02442
G1 X138.598 Y126.406 E3.05561
G1 X138.311 Y127.299 E3.0868
G1 X137.949 Y128.165 E3.11802
G1 X137.515 Y128.996 E3.1492
G1 X137.011 Y129.787 E3.1804
G1 X136.442 Y130.532 E3.21158
G1 X135.811 Y131.227 E3.2428
G1 X135.124 Y131.865 E3.27398
G1 X134.385 Y132.442 E3.30517
G1 X133.599 Y132.954 E3.33637
G1 X132.773 Y133.397 E3.36754
G1 X131.911 Y133.769 E3.39877
G1 X131.022 Y134.065 E3.42993
G1 X130.11 Y134.285 E3.46114
G1 X129.183 Y134.426 E3.49232
G1 X128.299 Y134.487 E3.52179
G1 X127.978 Y134.496 E3.53247
G1 X127.67 Y134.5 E3.54272
G1 X92.565 Y134.499 E4.71032
G1 X91.867 Y134.49 E4.73353
G1 X90.931 Y134.438 E4.76471
G1 X90.002 Y134.306 E4.79592
G1 X89.088 Y134.096 E4.82711
G1 X88.195 Y133.809 E4.85831
G1 X87.33 Y133.446 E4.88951
G1 X86.499 Y133.012 E4.92069
G1 X85.708 Y132.508 E4.95189
G1 X84.963 Y131.938 E4.98309
G1 X84.269 Y131.307 E5.01429
G1 X83.632 Y130.62 E5.04545
G1 X83.055 Y129.88 E5.07666
G1 X82.543 Y129.094 E5.10786
G1 X82.1 Y128.267 E5.13906
G1 X81.729 Y127.406 E5.17024
G1 X81.433 Y126.516 E5.20144
G1 X81.214 Y125.604 E5.23263
G1 X81.073 Y124.677 E5.26382
G1 X81.013 Y123.788 E5.29346
G1 X81.004 Y123.455 E5.30454
G1 X81 Y123.158 E5.31442
G1 X81.001 Y97.025 E6.1836
G1 X81.01 Y96.36 E6.20572
G1 X81.063 Y95.424 E6.2369
G1 X81.195 Y94.495 E6.26811
G1 X81.406 Y93.581 E6.29931
G1 X81.694 Y92.689 E6.33049
G1 X82.057 Y91.824 E6.36169
G1 X82.492 Y90.993 E6.39289
G1 X82.996 Y90.203 E6.42405
G1 X83.566 Y89.458 E6.45525
G1 X84.198 Y88.764 E6.48647
G0 F6000 X84.589 Y88.939
G1 F1200 X85.274 Y88.323 E6.51711
G1 X86.01 Y87.77 E6.54773
G1 X86.791 Y87.282 E6.57836
G1 X87.611 Y86.864 E6.60897
G1 X88.465 Y86.519 E6.63961
G1 X89.345 Y86.249 E6.67022
G1 X90.245 Y86.057 E6.70083
G1 X91.159 Y85.943 E6.73147
G1 X91.712 Y85.913 E6.74989
G1 X92.033 Y85.904 E6.76057
G1 X92.33 Y85.9 E6.77045
G1 X127.293 Y85.9 E7.93332
G1 X128.143 Y85.911 E7.96159
G1 X129.062 Y85.964 E7.99221
G1 X129.973 Y86.097 E8.02283
G1 X130.869 Y86.308 E8.05345
G1 X131.743 Y86.596 E8.08406
G1 X132.59 Y86.959 E8.11471
G1 X133.401 Y87.394 E8.14531
G1 X134.171 Y87.898 E8.17592
G1 X134.895 Y88.467 E8.20655
G1 X135.567 Y89.097 E8.23719
G1 X136.182 Y89.782 E8.26781
G1 X136.735 Y90.518 E8.29843
G1 X137.222 Y91.299 E8.32904
G1 X137.639 Y92.12 E8.35966
G1 X137.984 Y92.974 E8.3903
G1 X138.253 Y93.854 E8.4209
G1 X138.445 Y94.755 E8.45155
G1 X138.558 Y95.668 E8.48214
G1 X138.587 Y96.212 E8.50026
G1 X138.596 Y96.532 E8.51091
G1 X138.6 Y96.83 E8.52082
G1 X138.599 Y122.895 E9.38775
G1 X138.59 Y123.622 E9.41193
G1 X138.539 Y124.541 E9.44254
G1 X138.408 Y125.453 E9.47319
G1 X138.198 Y126.349 E9.5038
G1 X137.912 Y127.224 E9.53441
G1 X137.551 Y128.071 E9.56504
G1 X137.117 Y128.883 E9.59566
G1 X136.615 Y129.655 E9.62629
G1 X136.047 Y130.38 E9.65692
G1 X135.419 Y131.053 E9.68754
G1 X134.735 Y131.669 E9.71815
G1 X134 Y132.223 E9.74877
G1 X133.22 Y132.712 E9.77938
G1 X132.4 Y133.131 E9.81001
G1 X131.547 Y133.477 E9.84063
G1 X130.667 Y133.748 E9.87125
G1 X129.767 Y133.941 E9.90187
G1 X128.853 Y134.056 E9.93251
G1 X128.288 Y134.087 E9.95133
G1 X127.967 Y134.096 E9.96201
G1 X127.67 Y134.1 E9.97189
G1 X92.57 Y134.099 E11.13932
G1 X91.872 Y134.09 E11.16254
G1 X90.953 Y134.038 E11.19315
G1 X90.042 Y133.907 E11.22376
G1 X89.146 Y133.697 E11.25437
G1 X88.271 Y133.41 E11.285
G1 X87.424 Y133.048 E11.31564
G1 X86.612 Y132.614 E11.34626
G1 X85.841 Y132.112 E11.37686
G1 X85.116 Y131.544 E11.40749
G1 X84.443 Y130.915 E11.43813
G1 X83.828 Y130.231 E11.46872
G1 X83.274 Y129.496 E11.49934
G1 X82.786 Y128.715 E11.52997
G1 X82.367 Y127.895 E11.56059
G1 X82.021 Y127.042 E11.59121
G1 X81.751 Y126.162 E11.62183
G1 X81.558 Y125.261 E11.65247
G1 X81.444 Y124.348 E11.68308
G1 X81.413 Y123.777 E11.70209
G1 X81.404 Y123.444 E11.71317
G1 X81.4 Y123.158 E11.72269
G1 X81.401 Y97.031 E12.59168
G1 X81.41 Y96.366 E12.6138
G1 X81.462 Y95.446 E12.64444
G1 X81.594 Y94.535 E12.67506
G1 X81.805 Y93.639 E12.70568
G1 X82.092 Y92.764 E12.7363
G1 X82.455 Y91.918 E12.76692
G1 X82.889 Y91.106 E12.79755
G1 X83.392 Y90.335 E12.82816
G1 X83.961 Y89.611 E12.85879
G1 X84.589 Y88.939 E12.88938
G0 F6000 X84.981 Y89.117
G1 F1200 X85.662 Y88.524 E12.91942
G1 X86.394 Y87.994 E12.94947
G1 X87.169 Y87.531 E12.9795
G1 X87.982 Y87.138 E13.00954
G1 X88.827 Y86.818 E13.03959
G1 X89.696 Y86.575 E13.0696
G1 X90.584 Y86.409 E13.09965
G1 X91.723 Y86.313 E13.13766
G1 X92.044 Y86.304 E13.14834
G1 X92.33 Y86.3 E13.15786
G1 X127.293 Y86.3 E14.32073
G1 X128.137 Y86.311 E14.34881
G1 X129.039 Y86.364 E14.37886
G1 X129.932 Y86.496 E14.40888
G1 X130.81 Y86.707 E14.43892
G1 X131.666 Y86.995 E14.46895
G1 X132.493 Y87.357 E14.49898
G1 X133.285 Y87.792 E14.52903
G1 X134.036 Y88.294 E14.55908
G1 X134.739 Y88.861 E14.58912
G1 X135.389 Y89.488 E14.61916
G1 X135.981 Y90.17 E14.64919
G1 X136.511 Y90.901 E14.67923
G1 X136.973 Y91.677 E14.70926
G1 X137.366 Y92.49 E14.7393
G1 X137.684 Y93.335 E14.76933
G1 X137.927 Y94.205 E14.79937
G1 X138.092 Y95.093 E14.82941
G1 X138.187 Y96.223 E14.86713
G1 X138.196 Y96.543 E14.87777
G1 X138.2 Y96.83 E14.88732
G1 X138.199 Y122.89 E15.75408
G1 X138.19 Y123.617 E15.77826
G1 X138.139 Y124.519 E15.80831
G1 X138.008 Y125.413 E15.83836
G1 X137.799 Y126.291 E15.86838
G1 X137.513 Y127.148 E15.89843
G1 X137.152 Y127.976 E15.92847
G1 X136.72 Y128.768 E15.95848
G1 X136.219 Y129.52 E15.98853
G1 X135.653 Y130.224 E16.01858
G1 X135.028 Y130.875 E16.04859
G1 X134.347 Y131.469 E16.07865
G1 X133.616 Y132 E16.1087
G1 X132.842 Y132.464 E16.13871
G1 X132.029 Y132.858 E16.16876
G1 X131.185 Y133.178 E16.19878
G1 X130.315 Y133.423 E16.22885
G1 X129.428 Y133.589 E16.25886
G1 X128.277 Y133.687 E16.29728
G1 X127.956 Y133.696 E16.30796
G1 X127.67 Y133.7 E16.31748
G1 X92.575 Y133.699 E17.48474
G1 X91.877 Y133.69 E17.50796
G1 X90.976 Y133.639 E17.53797
G1 X90.082 Y133.507 E17.56803
G1 X89.204 Y133.298 E17.59805
G1 X88.347 Y133.011 E17.62811
G1 X87.52 Y132.65 E17.65812
G1 X86.727 Y132.217 E17.68817
G1 X85.976 Y131.716 E17.7182
G1 X85.272 Y131.15 E17.74824
G1 X84.621 Y130.524 E17.77828
G1 X84.028 Y129.843 E17.80831
G1 X83.498 Y129.112 E17.83835
G1 X83.034 Y128.337 E17.86839
G1 X82.64 Y127.524 E17.89844
G1 X82.32 Y126.68 E17.92846
G1 X82.076 Y125.81 E17.95851
G1 X81.91 Y124.922 E17.98856
G1 X81.813 Y123.767 E18.02711
G1 X81.804 Y123.434 E18.03819
G1 X81.8 Y123.158 E18.04737
G1 X81.801 Y97.036 E18.91619
G1 X81.81 Y96.371 E18.93831
G1 X81.862 Y95.469 E18.96836
G1 X81.994 Y94.576 E18.99839
G1 X82.204 Y93.698 E19.02841
G1 X82.491 Y92.841 E19.05847
G1 X82.853 Y92.014 E19.0885
G1 X83.286 Y91.222 E19.11852
G1 X83.788 Y90.471 E19.14856
G1 X84.355 Y89.767 E19.17863
G1 X84.981 Y89.117 E19.20864
G1 F1500 E12.70864
;MESH:winter_box_cap v3.stl
G0 F6000 X118.265 Y107.973
G0 X116.43 Y107.973
G0 X116.6 Y109.9
;TYPE:WALL-INNER
G1 F1500 E19.20864
G1 F1200 X122.6 Y109.9 E19.40821
G1 X122.6 Y103.9 E19.60777
G1 X116.6 Y103.9 E19.80733
G1 X116.6 Y109.9 E20.00689
G0 F6000 X117 Y109.5
G1 F1200 X122.2 Y109.5 E20.17984
G1 X122.2 Y104.3 E20.35279
G1 X117 Y104.3 E20.52575
G1 X117 Y109.5 E20.6987
G0 F6000 X117.4 Y109.1
;TYPE:WALL-OUTER
G1 F1200 X121.8 Y109.1 E20.84504
G1 X121.8 Y104.7 E20.99139
G1 X117.4 Y104.7 E21.13773
G1 X117.4 Y109.1 E21.28408
G1 F1500 E14.78408
G0 F6000 X117.1 Y109.1
G0 X120.673 Y110.07
G0 X120.673 Y108.235
G0 X128.665 Y110.096
G0 X126.79 Y110.096
G0 X127 Y122.5
;TYPE:WALL-INNER
G1 F1500 E21.28408
G1 F1200 X93 Y122.5 E22.41492
G1 X93 Y97.5 E23.24642
G1 X127 Y97.5 E24.37727
G1 X127 Y122.5 E25.20877
G0 F6000 X127.4 Y122.9
G1 F1200 X92.6 Y122.9 E26.36623
G1 X92.6 Y97.1 E27.22434
G1 X127.4 Y97.1 E28.38179
G1 X127.4 Y122.9 E29.2399
G0 F6000 X127.8 Y123.3
;TYPE:WALL-OUTER
G1 F1200 X92.2 Y123.3 E30.42396
G1 X92.2 Y96.7 E31.30868
G1 X127.8 Y96.7 E32.49274
G1 X127.8 Y123.3 E33.37746
G0 F6000 X127.53 Y123.03
G0 X126.89 Y122.11
G0 X126.61 Y122.11
;TYPE:SKIN
G1 F1200 X93.39 Y122.11 E34.48236
G1 X93.39 Y97.89 E35.28792
G1 X126.61 Y97.89 E36.39283
G1 X126.61 Y122.11 E37.19839
G1 F1500 E30.69839
G0 F6000 X126.89 Y122.11
G0 X126.79 Y110.04
G0 X128.665 Y110.04
G0 X120.935 Y107.964
G0 X122.77 Y107.964
G0 X122.71 Y110.04
G1 F1500 E37.19839
G0 F6000 X122.99 Y110.29
G1 F1200 X122.99 Y103.51 E37.42389
G1 X116.21 Y103.51 E37.64939
G1 X116.21 Y110.29 E37.8749
G1 X122.99 Y110.29 E38.1004
G1 F1500 E31.6004
G0 F6000 X122.71 Y110.04
G0 X122.77 Y107.964
G0 X120.935 Y107.964
G0 X128.665 Y103.704
G0 X126.79 Y103.704
G0 X126.89 Y98.164
G1 F1500 E38.1004
G0 F6000 X126.449 Y98.164
G1 F1200 X126.334 Y98.05 E38.10579
G0 F6000 X125.768 Y98.05
G1 F1200 X126.449 Y98.73 E38.1378
G0 F6000 X126.449 Y99.296
G1 F1200 X125.203 Y98.05 E38.1964
G0 F6000 X124.637 Y98.05
G1 F1200 X126.449 Y99.861 E38.28161
G0 F6000 X126.449 Y100.427
G1 F1200 X124.071 Y98.05 E38.39344
G0 F6000 X123.506 Y98.05
G1 F1200 X126.449 Y100.993 E38.53187
G0 F6000 X126.449 Y101.558
G1 F1200 X122.94 Y98.05 E38.6969
G0 F6000 X122.374 Y98.05
G1 F1200 X126.449 Y102.124 E38.88855
G0 F6000 X126.449 Y102.69
G1 F1200 X121.809 Y98.05 E39.1068
G0 F6000 X121.243 Y98.05
G1 F1200 X126.449 Y103.255 E39.35165
G0 F6000 X126.449 Y103.821
G1 F1200 X120.677 Y98.05 E39.62313
G0 F6000 X120.111 Y98.05
G1 F1200 X126.449 Y104.387 E39.92122
G0 F6000 X126.449 Y104.953
G1 F1200 X119.546 Y98.05 E40.24592
G0 F6000 X118.98 Y98.05
G1 F1200 X126.449 Y105.518 E40.59722
G0 F6000 X126.449 Y106.084
G1 F1200 X118.414 Y98.05 E40.97513
G0 F6000 X117.849 Y98.05
G1 F1200 X123.149 Y103.35 E41.22443
G1 X126.449 Y106.65 E41.37965
G0 F6000 X126.449 Y107.215
G1 F1200 X123.149 Y103.915 E41.53487
G0 F6000 X123.149 Y104.481
G1 F1200 X126.449 Y107.781 E41.6901
G0 F6000 X126.449 Y108.347
G1 F1200 X123.149 Y105.047 E41.84532
G0 F6000 X123.149 Y105.612
G1 F1200 X126.449 Y108.912 E42.00054
G0 F6000 X126.449 Y109.478
G1 F1200 X123.149 Y106.178 E42.15576
G0 F6000 X123.149 Y106.744
G1 F1200 X126.449 Y110.044 E42.31098
G0 F6000 X126.449 Y110.609
G1 F1200 X123.149 Y107.309 E42.4662
G0 F6000 X123.149 Y107.875
G1 F1200 X126.449 Y111.175 E42.62143
G0 F6000 X126.449 Y111.741
G1 F1200 X123.149 Y108.441 E42.77665
G0 F6000 X123.149 Y109.006
G1 F1200 X126.449 Y112.306 E42.93187
G0 F6000 X126.449 Y112.872
G1 F1200 X123.149 Y109.572 E43.08709
G0 F6000 X123.149 Y110.138
G1 F1200 X126.449 Y113.438 E43.24231
G0 F6000 X126.449 Y114.003
G1 F1200 X122.895 Y110.45 E43.40946
G0 F6000 X122.329 Y110.45
G1 F1200 X126.449 Y114.569 E43.60323
G0 F6000 X126.449 Y115.135
G1 F1200 X121.763 Y110.45 E43.82362
G0 F6000 X121.198 Y110.45
G1 F1200 X126.449 Y115.701 E44.07061
G0 F6000 X126.449 Y116.266
G1 F1200 X120.632 Y110.45 E44.3442
G0 F6000 X120.066 Y110.45
G1 F1200 X126.449 Y116.832 E44.64441
G0 F6000 X126.449 Y117.398
G1 F1200 X119.501 Y110.45 E44.97123
G0 F6000 X118.935 Y110.45
G1 F1200 X126.449 Y117.963 E45.32464
G0 F6000 X126.449 Y118.529
G1 F1200 X118.369 Y110.45 E45.70467
G0 F6000 X117.803 Y110.45
G1 F1200 X126.449 Y119.095 E46.11133
G0 F6000 X126.449 Y119.66
G1 F1200 X117.238 Y110.45 E46.54457
G0 F6000 X116.672 Y110.45
G1 F1200 X126.449 Y120.226 E47.00442
G0 F6000 X126.449 Y120.792
G1 F1200 X116.106 Y110.45 E47.4909
G1 X116.049 Y110.392
G1 X103.706 Y98.049 E48.07148
G0 F6000 X103.14 Y98.049
G1 F1200 X126.449 Y121.357 E49.16784
G0 F6000 X126.449 Y121.923
G1 F1200 X102.575 Y98.049 E50.2908
G0 F6000 X102.009 Y98.049
G1 F1200 X125.909 Y121.949 E51.41498
G0 F6000 X125.343 Y121.949
G1 F1200 X101.443 Y98.049 E52.53916
G0 F6000 X100.877 Y98.049
G1 F1200 X124.778 Y121.949 E53.66337
G0 F6000 X124.212 Y121.949
G1 F1200 X100.312 Y98.049 E54.78755
G0 F6000 X99.746 Y98.049
G1 F1200 X123.646 Y121.949 E55.91174
G0 F6000 X123.081 Y121.949
G1 F1200 X99.18 Y98.049 E57.03594
G0 F6000 X98.615 Y98.049
G1 F1200 X122.515 Y121.949 E58.16012
G0 F6000 X121.949 Y121.949
G1 F1200 X98.049 Y98.049 E59.28431
G0 F6000 X97.483 Y98.049
G1 F1200 X121.384 Y121.949 E60.40851
G0 F6000 X120.818 Y121.949
G1 F1200 X96.918 Y98.049 E61.5327
G0 F6000 X96.352 Y98.049
G1 F1200 X120.252 Y121.949 E62.65688
G0 F6000 X119.687 Y121.949
G1 F1200 X95.786 Y98.049 E63.78109
G0 F6000 X95.221 Y98.049
G1 F1200 X119.121 Y121.949 E64.90527
G0 F6000 X118.555 Y121.949
G1 F1200 X94.655 Y98.049 E66.02945
G0 F6000 X94.089 Y98.049
G1 F1200 X117.989 Y121.949 E67.15363
G0 F6000 X117.424 Y121.949
G1 F1200 X93.55 Y98.075 E68.27659
G0 F6000 X93.55 Y98.641
G1 F1200 X116.858 Y121.949 E69.37293
G0 F6000 X116.292 Y121.949
G1 F1200 X93.55 Y99.207 E70.44264
G0 F6000 X93.55 Y99.772
G1 F1200 X115.727 Y121.949 E71.48578
G0 F6000 X115.161 Y121.949
G1 F1200 X93.55 Y100.338 E72.5023
G0 F6000 X93.55 Y100.904
G1 F1200 X114.595 Y121.949 E73.49219
G0 F6000 X114.03 Y121.949
G1 F1200 X93.55 Y101.469 E74.45551
G0 F6000 X93.55 Y102.035
G1 F1200 X113.464 Y121.949 E75.3922
G0 F6000 X112.898 Y121.949
G1 F1200 X93.55 Y102.601 E76.30227
G0 F6000 X93.55 Y103.166
G1 F1200 X112.333 Y121.949 E77.18576
G0 F6000 X111.767 Y121.949
G1 F1200 X93.55 Y103.732 E78.04264
G0 F6000 X93.55 Y104.298
G1 F1200 X111.201 Y121.949 E78.87289
G0 F6000 X110.636 Y121.949
G1 F1200 X93.55 Y104.863 E79.67656
G0 F6000 X93.55 Y105.429
G1 F1200 X110.07 Y121.949 E80.45361
G0 F6000 X109.503 Y121.949
G1 F1200 X93.55 Y105.995 E81.20401
G0 F6000 X93.55 Y106.56
G1 F1200 X108.938 Y121.949 E81.92784
G0 F6000 X108.372 Y121.949
G1 F1200 X93.55 Y107.126 E82.62505
G0 F6000 X93.55 Y107.692
G1 F1200 X107.806 Y121.949 E83.29563
G0 F6000 X107.241 Y121.949
G1 F1200 X93.55 Y108.258 E83.93961
G0 F6000 X93.55 Y108.823
G1 F1200 X106.675 Y121.949 E84.55699
G0 F6000 X106.109 Y121.949
G1 F1200 X93.55 Y109.389 E85.14775
G0 F6000 X93.55 Y109.955
G1 F1200 X105.544 Y121.949 E85.71191
G0 F6000 X104.978 Y121.949
G1 F1200 X93.55 Y110.52 E86.24948
G0 F6000 X93.55 Y111.086
G1 F1200 X104.412 Y121.949 E86.76042
G0 F6000 X103.847 Y121.949
G1 F1200 X93.55 Y111.652 E87.24475
G0 F6000 X93.55 Y112.217
G1 F1200 X103.281 Y121.949 E87.70249
G0 F6000 X102.715 Y121.949
G1 F1200 X93.55 Y112.783 E88.13361
G0 F6000 X93.55 Y113.349
G1 F1200 X102.15 Y121.949 E88.53813
G0 F6000 X101.584 Y121.949
G1 F1200 X93.55 Y113.914 E88.91605
G0 F6000 X93.55 Y114.48
G1 F1200 X101.018 Y121.949 E89.26734
G0 F6000 X100.453 Y121.949
G1 F1200 X93.55 Y115.046 E89.59204
G0 F6000 X93.55 Y115.611
G1 F1200 X99.887 Y121.949 E89.89014
G0 F6000 X99.321 Y121.949
G1 F1200 X93.55 Y116.177 E90.16161
G0 F6000 X93.55 Y116.743
