;FLAVOR:Marlin
;TIME:2979
;Filament used: 3.51906m
;Layer height: 0.15
;MINX:-20.772
;MINY:-31.903
;MINZ:0.3
;MAXX:20.772
;MAXY:32.272
;MAXZ:25.5
;Generated with Cura_SteamEngine 4.13.1
M140 S60
M105
M190 S60
M104 S200
M105
M109 S200
M82 ;absolute extrusion mode
G28 ;Home
G1 Z15.0 F6000 ;Move the platform down 15mm
;Prime the extruder
G92 E0
G1 F200 E3
G92 E0
G92 E0
G92 E0
G1 F1500 E-6.5
;LAYER_COUNT:169
;LAYER:0
M107
G0 F3600 X20.772 Y-18.854 Z0.3
;TYPE:SKIRT
G1 F1500 E0
G1 F1800 X20.771 Y22.999 E2.61007
G1 X20.735 Y23.75 E2.65696
G1 X20.706 Y24.048 E2.67563
G1 X20.59 Y24.826 E2.72468
G1 X20.412 Y25.536 E2.77033
G1 X20.326 Y25.821 E2.7889
G1 X20.06 Y26.562 E2.83799
G1 X19.742 Y27.233 E2.8843
G1 X19.601 Y27.497 E2.90297
G1 X19.195 Y28.172 E2.95209
G1 X18.755 Y28.764 E2.99809
G1 X18.567 Y28.993 E3.01656
G1 X18.037 Y29.575 E3.06565
G1 X17.497 Y30.063 E3.11104
G1 X17.267 Y30.252 E3.12961
G1 X16.635 Y30.72 E3.17865
G1 X16.027 Y31.084 E3.22284
G1 X15.762 Y31.227 E3.24162
G1 X15.052 Y31.565 E3.29066
G1 X14.311 Y31.829 E3.33972
G1 X14.028 Y31.914 E3.35815
G1 X13.264 Y32.102 E3.40721
G1 X12.578 Y32.187 E3.45032
G1 X12.316 Y32.229 E3.46687
G1 X11.499 Y32.272 E3.51789
G1 X-11.499 Y32.271 E4.95211
G1 X-12.25 Y32.235 E4.999
G1 X-12.548 Y32.206 E5.01767
G1 X-13.326 Y32.09 E5.06672
G1 X-14.045 Y31.909 E5.11296
G1 X-14.332 Y31.822 E5.13166
G1 X-15.073 Y31.555 E5.18078
G1 X-15.738 Y31.24 E5.22667
G1 X-15.998 Y31.101 E5.24506
G1 X-16.672 Y30.695 E5.29412
G1 X-17.257 Y30.26 E5.33959
G1 X-17.49 Y30.069 E5.35838
G1 X-18.073 Y29.539 E5.40751
G1 X-18.567 Y28.993 E5.45343
G1 X-18.755 Y28.764 E5.47191
G1 X-19.223 Y28.131 E5.521
G1 X-19.59 Y27.517 E5.56561
G1 X-19.732 Y27.253 E5.5843
G1 X-20.069 Y26.542 E5.63337
G1 X-20.329 Y25.811 E5.68176
G1 X-20.414 Y25.528 E5.70018
G1 X-20.602 Y24.764 E5.74925
G1 X-20.686 Y24.085 E5.79192
G1 X-20.728 Y23.825 E5.80834
G1 X-20.772 Y23.001 E5.8598
G1 X-20.771 Y-23.499 E8.75967
G1 X-20.69 Y-24.615 E8.82945
G1 X-20.658 Y-24.835 E8.84332
G1 X-20.506 Y-25.607 E8.89238
G1 X-20.275 Y-26.359 E8.94144
G1 X-19.795 Y-27.425 E9.01435
G1 X-19.691 Y-27.616 E9.02791
G1 X-19.28 Y-28.287 E9.07698
G1 X-18.803 Y-28.914 E9.12611
G1 X-17.979 Y-29.751 E9.19936
G1 X-17.807 Y-29.901 E9.21359
G1 X-17.188 Y-30.387 E9.26267
G1 X-16.523 Y-30.809 E9.31179
G1 X-15.819 Y-31.16 E9.36085
G1 X-14.986 Y-31.469 E9.41626
G1 X-14.722 Y-31.55 E9.43348
G1 X-13.959 Y-31.742 E9.48254
G1 X-13.18 Y-31.856 E9.53164
G1 X-12.463 Y-31.891 E9.57641
G1 X-6.251 Y-31.902 E9.96381
G1 X6.323 Y-31.903 E10.74796
G1 X12.463 Y-31.892 E11.13086
G1 X13.249 Y-31.851 E11.17995
G1 X14.027 Y-31.73 E11.22905
G1 X14.602 Y-31.587 E11.266
G1 X14.889 Y-31.504 E11.28463
G1 X15.633 Y-31.247 E11.33372
G1 X16.347 Y-30.916 E11.3828
G1 X17.024 Y-30.514 E11.4319
G1 X17.657 Y-30.046 E11.48099
G1 X18.354 Y-29.398 E11.54034
G1 X18.545 Y-29.197 E11.55763
G1 X19.058 Y-28.599 E11.60677
G1 X19.507 Y-27.953 E11.65583
G1 X19.888 Y-27.264 E11.70493
G1 X20.198 Y-26.541 E11.75399
G1 X20.376 Y-25.996 E11.78974
G1 X20.469 Y-25.672 E11.81077
G1 X20.648 Y-24.906 E11.85982
G1 X20.747 Y-24.125 E11.90892
G1 X20.77 Y-23.537 E11.94561
G1 X20.772 Y-18.854 E12.23766
G0 F3600 X20.272 Y-18.854
G1 F1800 X20.271 Y22.999 E14.84773
G1 X20.237 Y23.701 E14.89156
G1 X20.208 Y23.999 E14.91023
G1 X20.094 Y24.752 E14.95772
G1 X19.933 Y25.391 E14.99882
G1 X19.847 Y25.676 E15.01738
G1 X19.589 Y26.393 E15.0649
G1 X19.301 Y26.998 E15.10669
G1 X19.16 Y27.262 E15.12536
G1 X18.767 Y27.913 E15.17278
G1 X18.369 Y28.446 E15.21426
G1 X18.181 Y28.675 E15.23274
G1 X17.667 Y29.238 E15.28028
G1 X17.18 Y29.676 E15.32113
G1 X16.95 Y29.865 E15.33969
G1 X16.337 Y30.317 E15.38719
G1 X15.79 Y30.644 E15.42693
G1 X15.525 Y30.787 E15.44571
G1 X14.837 Y31.113 E15.49319
G1 X14.168 Y31.351 E15.53747
G1 X13.885 Y31.436 E15.5559
G1 X13.145 Y31.616 E15.60339
G1 X12.527 Y31.691 E15.64222
G1 X12.264 Y31.732 E15.65882
G1 X11.499 Y31.772 E15.70659
G1 X-11.499 Y31.771 E17.14081
G1 X-12.201 Y31.737 E17.18464
G1 X-12.499 Y31.708 E17.20331
G1 X-13.252 Y31.594 E17.2508
G1 X-13.9 Y31.43 E17.29249
G1 X-14.187 Y31.343 E17.31119
G1 X-14.903 Y31.084 E17.35867
G1 X-15.502 Y30.799 E17.40004
G1 X-15.762 Y30.66 E17.41843
G1 X-16.414 Y30.266 E17.46594
G1 X-16.94 Y29.873 E17.50688
G1 X-17.173 Y29.682 E17.52567
G1 X-17.736 Y29.169 E17.57317
G1 X-18.181 Y28.675 E17.61464
G1 X-18.369 Y28.446 E17.63311
G1 X-18.82 Y27.833 E17.68057
G1 X-19.15 Y27.28 E17.72073
G1 X-19.292 Y27.016 E17.73943
G1 X-19.617 Y26.328 E17.78688
G1 X-19.851 Y25.668 E17.83055
G1 X-19.936 Y25.385 E17.84898
G1 X-20.116 Y24.645 E17.89647
G1 X-20.191 Y24.032 E17.93498
G1 X-20.231 Y23.771 E17.95145
G1 X-20.272 Y23.001 E17.99954
G1 X-20.271 Y-23.499 E20.89941
G1 X-20.196 Y-24.543 E20.96468
G1 X-20.164 Y-24.763 E20.97855
G1 X-20.015 Y-25.509 E21.02599
G1 X-19.788 Y-26.236 E21.07348
G1 X-19.356 Y-27.186 E21.13857
G1 X-19.252 Y-27.377 E21.15213
G1 X-18.854 Y-28.026 E21.19961
G1 X-18.389 Y-28.629 E21.24709
G1 X-17.65 Y-29.374 E21.31253
G1 X-17.478 Y-29.524 E21.32677
G1 X-16.879 Y-29.994 E21.37425
G1 X-16.234 Y-30.398 E21.42171
G1 X-15.55 Y-30.732 E21.46918
G1 X-14.84 Y-30.991 E21.51631
G1 X-14.576 Y-31.072 E21.53353
G1 X-13.837 Y-31.257 E21.58104
G1 X-13.083 Y-31.363 E21.62853
G1 X-12.462 Y-31.391 E21.66729
G1 X-6.251 Y-31.402 E22.05463
G1 X6.322 Y-31.403 E22.83872
G1 X12.462 Y-31.392 E23.22162
G1 X13.222 Y-31.351 E23.26909
G1 X13.974 Y-31.23 E23.31659
G1 X14.463 Y-31.107 E23.34803
G1 X14.75 Y-31.024 E23.36666
G1 X15.469 Y-30.774 E23.41414
G1 X16.158 Y-30.45 E23.46162
G1 X16.81 Y-30.056 E23.50913
G1 X17.416 Y-29.596 E23.55657
G1 X17.992 Y-29.053 E23.60594
G1 X18.183 Y-28.852 E23.62323
G1 X18.677 Y-28.273 E23.67069
G1 X19.109 Y-27.646 E23.71818
G1 X19.472 Y-26.977 E23.76565
G1 X19.763 Y-26.273 E23.81315
G1 X19.989 Y-25.534 E23.86134
G1 X20.16 Y-24.792 E23.90883
G1 X20.253 Y-24.037 E23.95627
G1 X20.27 Y-23.537 E23.98747
G1 X20.272 Y-18.854 E24.27951
G0 F3600 X19.772 Y-18.854
G1 F1800 X19.771 Y22.999 E26.88958
G1 X19.739 Y23.653 E26.93042
G1 X19.71 Y23.951 E26.94909
G1 X19.599 Y24.677 E26.99489
G1 X19.454 Y25.247 E27.03157
G1 X19.368 Y25.532 E27.05013
G1 X19.118 Y26.223 E27.09596
G1 X18.86 Y26.762 E27.13323
G1 X18.719 Y27.026 E27.15189
G1 X18.338 Y27.654 E27.1977
G1 X17.982 Y28.129 E27.23472
G1 X17.794 Y28.358 E27.25319
G1 X17.298 Y28.9 E27.29901
G1 X16.862 Y29.29 E27.33549
G1 X16.632 Y29.479 E27.35406
G1 X16.04 Y29.914 E27.39987
G1 X15.553 Y30.204 E27.43522
G1 X15.288 Y30.347 E27.454
G1 X14.623 Y30.66 E27.49983
G1 X14.024 Y30.872 E27.53946
G1 X13.741 Y30.957 E27.55789
G1 X13.027 Y31.129 E27.60369
G1 X12.474 Y31.196 E27.63843
G1 X12.211 Y31.234 E27.655
G1 X11.499 Y31.272 E27.69946
G1 X-11.499 Y31.271 E29.13368
G1 X-12.153 Y31.239 E29.17452
G1 X-12.451 Y31.21 E29.19319
G1 X-13.177 Y31.099 E29.23899
G1 X-13.755 Y30.952 E29.27618
G1 X-14.042 Y30.865 E29.29489
G1 X-14.733 Y30.614 E29.34073
G1 X-15.266 Y30.358 E29.37761
G1 X-15.526 Y30.219 E29.39599
G1 X-16.154 Y29.838 E29.4418
G1 X-16.623 Y29.486 E29.47837
G1 X-16.856 Y29.295 E29.49716
G1 X-17.398 Y28.799 E29.54298
G1 X-17.794 Y28.358 E29.57994
G1 X-17.982 Y28.129 E29.59842
G1 X-18.417 Y27.537 E29.64423
G1 X-18.71 Y27.043 E29.68005
G1 X-18.852 Y26.779 E29.69874
G1 X-19.164 Y26.115 E29.7445
G1 X-19.372 Y25.524 E29.78357
G1 X-19.457 Y25.241 E29.802
G1 X-19.629 Y24.527 E29.8478
G1 X-19.695 Y23.979 E29.88222
G1 X-19.734 Y23.718 E29.89868
G1 X-19.772 Y23.001 E29.94345
G1 X-19.771 Y-23.499 E32.84332
G1 X-19.701 Y-24.471 E32.90409
G1 X-19.669 Y-24.691 E32.91796
G1 X-19.524 Y-25.411 E32.96376
G1 X-19.301 Y-26.111 E33.00958
G1 X-18.917 Y-26.947 E33.06695
G1 X-18.813 Y-27.138 E33.08051
G1 X-18.427 Y-27.763 E33.12632
G1 X-17.976 Y-28.342 E33.17209
G1 X-17.322 Y-28.997 E33.22981
G1 X-17.15 Y-29.147 E33.24405
G1 X-16.57 Y-29.599 E33.2899
G1 X-15.946 Y-29.986 E33.33569
G1 X-15.283 Y-30.302 E33.3815
G1 X-14.693 Y-30.513 E33.42057
G1 X-14.429 Y-30.594 E33.43779
G1 X-13.716 Y-30.771 E33.48361
G1 X-12.988 Y-30.869 E33.52942
G1 X-12.461 Y-30.891 E33.56231
G1 X-6.251 Y-30.902 E33.94959
G1 X6.321 Y-30.903 E34.73361
G1 X12.461 Y-30.892 E35.11652
G1 X13.195 Y-30.851 E35.16236
G1 X13.919 Y-30.73 E35.20814
G1 X14.611 Y-30.543 E35.25284
G1 X15.305 Y-30.301 E35.29868
G1 X15.968 Y-29.985 E35.34448
G1 X16.593 Y-29.599 E35.39029
G1 X17.172 Y-29.147 E35.4361
G1 X17.629 Y-28.709 E35.47558
G1 X17.82 Y-28.508 E35.49287
G1 X18.296 Y-27.948 E35.5387
G1 X18.709 Y-27.341 E35.58449
G1 X19.053 Y-26.692 E35.6303
G1 X19.415 Y-25.72 E35.69498
G1 X19.508 Y-25.396 E35.716
G1 X19.672 Y-24.68 E35.76181
G1 X19.757 Y-23.951 E35.80758
G1 X19.77 Y-23.537 E35.83341
G1 X19.772 Y-18.854 E36.12546
G0 F3600 X19.272 Y-18.854
G1 F1800 X19.271 Y22.999 E38.73552
G1 X19.242 Y23.604 E38.7733
G1 X19.213 Y23.902 E38.79197
G1 X19.104 Y24.601 E38.83609
G1 X18.976 Y25.103 E38.86839
G1 X18.89 Y25.388 E38.88696
G1 X18.647 Y26.052 E38.93105
G1 X18.419 Y26.526 E38.96386
G1 X18.278 Y26.79 E38.98252
G1 X17.91 Y27.394 E39.02663
G1 X17.596 Y27.812 E39.05923
G1 X17.408 Y28.041 E39.07771
G1 X16.929 Y28.561 E39.1218
G1 X16.545 Y28.904 E39.15391
G1 X16.315 Y29.093 E39.17247
G1 X15.744 Y29.51 E39.21657
G1 X15.05 Y29.907 E39.26643
G1 X14.41 Y30.207 E39.31051
G1 X13.88 Y30.393 E39.34554
G1 X13.597 Y30.478 E39.36396
G1 X12.91 Y30.643 E39.40803
G1 X12.158 Y30.737 E39.45529
G1 X11.499 Y30.772 E39.49644
G1 X-11.499 Y30.771 E40.93066
G1 X-12.104 Y30.742 E40.96843
G1 X-12.402 Y30.713 E40.98711
G1 X-13.101 Y30.604 E41.03122
G1 X-13.61 Y30.473 E41.064
G1 X-13.897 Y30.386 E41.0827
G1 X-14.561 Y30.143 E41.1268
G1 X-15.031 Y29.917 E41.15932
G1 X-15.291 Y29.778 E41.17771
G1 X-15.894 Y29.41 E41.22176
G1 X-16.306 Y29.1 E41.25392
G1 X-16.539 Y28.909 E41.2727
G1 X-17.06 Y28.43 E41.31684
G1 X-17.408 Y28.041 E41.34939
G1 X-17.596 Y27.812 E41.36787
G1 X-18.013 Y27.241 E41.41196
G1 X-18.269 Y26.807 E41.44338
G1 X-18.411 Y26.543 E41.46208
G1 X-18.71 Y25.902 E41.50619
G1 X-18.893 Y25.38 E41.54068
G1 X-18.978 Y25.097 E41.55911
G1 X-19.143 Y24.41 E41.60317
G1 X-19.237 Y23.665 E41.65
G1 X-19.272 Y23.001 E41.69147
G1 X-19.271 Y-23.499 E44.59134
G1 X-19.206 Y-24.399 E44.64761
G1 X-19.174 Y-24.619 E44.66147
G1 X-19.033 Y-25.311 E44.70551
G1 X-18.814 Y-25.983 E44.74959
G1 X-18.478 Y-26.708 E44.79942
G1 X-18.374 Y-26.899 E44.81299
G1 X-18.001 Y-27.499 E44.85705
G1 X-17.563 Y-28.054 E44.90114
G1 X-16.993 Y-28.62 E44.95123
G1 X-16.821 Y-28.77 E44.96546
G1 X-16.263 Y-29.204 E45.00955
G1 X-15.659 Y-29.572 E45.05366
G1 X-15.018 Y-29.869 E45.09771
G1 X-14.546 Y-30.035 E45.12892
G1 X-14.282 Y-30.116 E45.14614
G1 X-13.596 Y-30.285 E45.1902
G1 X-12.895 Y-30.375 E45.23427
G1 X-12.46 Y-30.391 E45.26142
G1 X-6.25 Y-30.402 E45.64869
G1 X6.32 Y-30.403 E46.43259
G1 X12.46 Y-30.392 E46.8155
G1 X13.166 Y-30.351 E46.8596
G1 X14.185 Y-30.146 E46.92442
G1 X14.472 Y-30.063 E46.94305
G1 X15.139 Y-29.829 E46.98714
G1 X15.775 Y-29.52 E47.03123
G1 X16.372 Y-29.142 E47.0753
G1 X16.923 Y-28.699 E47.11939
G1 X17.458 Y-28.163 E47.16662
G1 X17.915 Y-27.624 E47.21069
G1 X18.308 Y-27.037 E47.25474
G1 X18.633 Y-26.409 E47.29884
G1 X18.934 Y-25.582 E47.35372
G1 X19.027 Y-25.258 E47.37474
G1 X19.184 Y-24.569 E47.41881
G1 X19.27 Y-23.537 E47.48339
G1 X19.272 Y-18.854 E47.77544
G0 F3600 X18.772 Y-18.854
G1 F1800 X18.771 Y22.999 E50.38551
G1 X18.744 Y23.556 E50.42028
G1 X18.715 Y23.854 E50.43895
G1 X18.61 Y24.524 E50.48125
G1 X18.411 Y25.243 E50.52777
G1 X18.177 Y25.879 E50.57003
G1 X17.837 Y26.555 E50.61722
G1 X17.483 Y27.133 E50.65949
G1 X17.021 Y27.724 E50.70627
G1 X16.561 Y28.221 E50.74851
G1 X15.998 Y28.706 E50.79485
G1 X15.449 Y29.105 E50.83717
G1 X14.813 Y29.467 E50.88281
G1 X14.198 Y29.753 E50.92511
G1 X13.453 Y29.999 E50.97403
G1 X12.793 Y30.155 E51.01633
G1 X12.105 Y30.24 E51.05956
G1 X11.499 Y30.272 E51.0974
G1 X-11.499 Y30.271 E52.53162
G1 X-12.056 Y30.244 E52.5664
G1 X-12.354 Y30.215 E52.58507
G1 X-13.024 Y30.11 E52.62736
G1 X-13.752 Y29.908 E52.67448
G1 X-14.388 Y29.673 E52.71676
G1 X-15.055 Y29.337 E52.76334
G1 X-15.633 Y28.983 E52.80561
G1 X-16.222 Y28.522 E52.85225
G1 X-16.72 Y28.062 E52.89453
G1 X-17.209 Y27.495 E52.94122
G1 X-17.608 Y26.946 E52.98355
G1 X-17.971 Y26.306 E53.02943
G1 X-18.256 Y25.691 E53.07171
G1 X-18.499 Y24.953 E53.12016
G1 X-18.655 Y24.293 E53.16245
G1 X-18.739 Y23.612 E53.20524
G1 X-18.772 Y23.001 E53.2434
G1 X-18.771 Y-23.499 E56.14327
G1 X-18.711 Y-24.327 E56.19504
G1 X-18.679 Y-24.547 E56.20891
G1 X-18.542 Y-25.211 E56.25119
G1 X-18.328 Y-25.854 E56.29345
G1 X-18.039 Y-26.469 E56.33583
G1 X-17.935 Y-26.66 E56.34939
G1 X-17.576 Y-27.235 E56.39166
G1 X-17.152 Y-27.764 E56.43394
G1 X-16.664 Y-28.244 E56.47663
G1 X-16.492 Y-28.394 E56.49086
G1 X-15.956 Y-28.808 E56.5331
G1 X-15.375 Y-29.157 E56.57537
G1 X-14.756 Y-29.435 E56.61768
G1 X-14.136 Y-29.638 E56.65837
G1 X-13.477 Y-29.798 E56.70066
G1 X-12.804 Y-29.88 E56.74294
G1 X-12.459 Y-29.891 E56.76446
G1 X-6.25 Y-29.902 E57.15168
G1 X6.319 Y-29.903 E57.93551
G1 X12.459 Y-29.892 E58.31842
G1 X13.136 Y-29.851 E58.36072
G1 X14.046 Y-29.666 E58.41863
G1 X14.333 Y-29.583 E58.43726
G1 X14.972 Y-29.356 E58.47955
G1 X15.58 Y-29.056 E58.52183
G1 X16.149 Y-28.687 E58.56412
G1 X16.904 Y-28.02 E58.62695
G1 X17.095 Y-27.819 E58.64424
G1 X17.532 Y-27.301 E58.68651
G1 X17.906 Y-26.735 E58.72881
G1 X18.21 Y-26.129 E58.77109
G1 X18.454 Y-25.444 E58.81644
G1 X18.547 Y-25.12 E58.83746
G1 X18.695 Y-24.459 E58.8797
G1 X18.77 Y-23.536 E58.93745
G1 X18.772 Y-18.854 E59.22944
G0 F3600 X18.272 Y-18.854
G1 F1800 X18.271 Y22.999 E61.83951
G1 X18.246 Y23.508 E61.87129
G1 X18.217 Y23.806 E61.88996
G1 X18.115 Y24.445 E61.93031
G1 X17.932 Y25.099 E61.97266
G1 X17.707 Y25.706 E62.01304
G1 X17.396 Y26.319 E62.0559
G1 X17.056 Y26.871 E62.09633
G1 X16.635 Y27.406 E62.13879
G1 X16.194 Y27.881 E62.17921
G1 X15.68 Y28.32 E62.22136
G1 X15.155 Y28.7 E62.26178
G1 X14.575 Y29.027 E62.3033
G1 X13.987 Y29.299 E62.34371
G1 X13.309 Y29.52 E62.38818
G1 X12.679 Y29.668 E62.42854
G1 X12.053 Y29.743 E62.46785
G1 X11.499 Y29.772 E62.50245
G1 X-11.499 Y29.771 E63.93667
G1 X-12.008 Y29.746 E63.96845
G1 X-12.306 Y29.717 E63.98712
G1 X-12.945 Y29.615 E64.02748
G1 X-13.607 Y29.429 E64.07036
G1 X-14.214 Y29.203 E64.11075
G1 X-14.819 Y28.896 E64.15306
G1 X-15.371 Y28.556 E64.19349
G1 X-15.905 Y28.135 E64.2359
G1 X-16.38 Y27.694 E64.27632
G1 X-16.823 Y27.177 E64.31878
G1 X-17.202 Y26.652 E64.35916
G1 X-17.531 Y26.069 E64.4009
G1 X-17.802 Y25.481 E64.44128
G1 X-18.02 Y24.809 E64.48534
G1 X-18.168 Y24.179 E64.5257
G1 X-18.242 Y23.559 E64.56464
G1 X-18.272 Y23.001 E64.59948
G1 X-18.271 Y-23.499 E67.49935
G1 X-18.216 Y-24.255 E67.54662
G1 X-18.184 Y-24.475 E67.56049
G1 X-18.052 Y-25.109 E67.60087
G1 X-17.842 Y-25.722 E67.64128
G1 X-17.6 Y-26.23 E67.67637
G1 X-17.496 Y-26.421 E67.68994
G1 X-17.152 Y-26.969 E67.73029
G1 X-16.742 Y-27.471 E67.77071
G1 X-16.336 Y-27.867 E67.80608
G1 X-16.164 Y-28.017 E67.82031
G1 X-15.65 Y-28.412 E67.86074
G1 X-15.092 Y-28.74 E67.9011
G1 X-14.253 Y-29.079 E67.95753
G1 X-13.989 Y-29.16 E67.97475
G1 X-13.359 Y-29.312 E68.01517
G1 X-12.458 Y-29.391 E68.07157
G1 X-6.25 Y-29.402 E68.45872
G1 X6.318 Y-29.403 E69.2425
G1 X12.458 Y-29.392 E69.62541
G1 X13.105 Y-29.351 E69.66584
G1 X13.908 Y-29.185 E69.71697
G1 X14.195 Y-29.102 E69.7356
G1 X14.805 Y-28.884 E69.776
G1 X15.383 Y-28.593 E69.81636
G1 X15.921 Y-28.232 E69.85676
G1 X16.542 Y-27.675 E69.90878
G1 X16.733 Y-27.474 E69.92608
G1 X17.149 Y-26.978 E69.96645
G1 X17.501 Y-26.435 E70.0068
G1 X17.784 Y-25.852 E70.04722
G1 X17.973 Y-25.306 E70.08325
G1 X18.066 Y-24.982 E70.10427
G1 X18.206 Y-24.35 E70.14464
G1 X18.27 Y-23.536 E70.19556
G1 X18.272 Y-18.854 E70.48754
G0 F3600 X17.772 Y-18.854
G1 F1800 X17.771 Y22.999 E73.09761
G1 X17.72 Y23.757 E73.14499
G1 X17.62 Y24.365 E73.18341
G1 X17.453 Y24.954 E73.22159
G1 X17.238 Y25.531 E73.25999
G1 X16.955 Y26.084 E73.29873
G1 X16.63 Y26.607 E73.33713
G1 X16.248 Y27.089 E73.37549
G1 X15.827 Y27.539 E73.41392
G1 X15.363 Y27.934 E73.45192
G1 X14.603 Y28.444 E73.509
G1 X14.338 Y28.587 E73.52778
G1 X13.778 Y28.844 E73.5662
G1 X13.165 Y29.041 E73.60636
G1 X12.565 Y29.18 E73.64476
G1 X12 Y29.246 E73.68024
G1 X11.499 Y29.272 E73.71152
