;FLAVOR:Marlin
;TIME:6700
;Filament used: 3.46028m
;Layer height: 0.12
;MINX:93
;MINY:64
;MINZ:0.12
;MAXX:127
;MAXY:156
;MAXZ:12
;Generated with Cura_SteamEngine main
M82 ;absolute extrusion mode
; Ender 3 Custom Start G-code
G92 E0 ; Reset Extruder
G28 ; Home all axes
M104 S175 ; Start heating up the nozzle most of the way
M190 S60 ; Start heating the bed, wait until target temperature reached
M109 S200 ; Finish heating the nozzle
G1 Z2.0 F3000 ; Move Z Axis up little to prevent scratching of Heat Bed
G1 X0.1 Y20 Z0.3 F5000.0 ; Move to start position
G1 X0.1 Y200.0 Z0.3 F1500.0 E15 ; Draw the first line
G1 X0.4 Y200.0 Z0.3 F5000.0 ; Move to side a little
G1 X0.4 Y20 Z0.3 F1500.0 E30 ; Draw the second line
G92 E0 ; Reset Extruder
G1 Z2.0 F3000 ; Move Z Axis up little to prevent scratching of Heat Bed
G1 X5 Y20 Z0.3 F5000.0 ; Move over to prevent blob squish
G92 E0
G92 E0
G1 F1500 E-6.5
;LAYER_COUNT:100
;LAYER:0
M107
G0 F6000 X95.007 Y68.689 Z0.12
G0 X93.001 Y75.509
;TYPE:SKIRT
G1 F1500 E0
G1 F1200 X93.011 Y74.844 E0.01327
G1 X93.065 Y73.907 E0.032
G1 X93.199 Y72.979 E0.05071
G1 X93.411 Y72.065 E0.06944
G1 X93.7 Y71.173 E0.08815
G1 X94.065 Y70.309 E0.10687
G1 X94.501 Y69.479 E0.12558
G1 X95.007 Y68.689 E0.1443
G1 X95.578 Y67.945 E0.16301
G1 X96.21 Y67.252 E0.18173
G1 X96.899 Y66.616 E0.20044
G1 X97.64 Y66.041 E0.21916
G1 X98.427 Y65.531 E0.23788
G1 X99.255 Y65.09 E0.2566
G1 X100.117 Y64.721 E0.27531
G1 X101.008 Y64.427 E0.29403
G1 X101.92 Y64.209 E0.31275
G1 X102.847 Y64.071 E0.33145
G1 X103.701 Y64.013 E0.34853
G1 X104.33 Y64 E0.36109
G1 X115.451 Y64.001 E0.58302
G1 X116.149 Y64.011 E0.59695
G1 X117.085 Y64.065 E0.61566
G1 X118.013 Y64.197 E0.63436
G1 X118.927 Y64.409 E0.65309
G1 X119.819 Y64.698 E0.6718
G1 X120.684 Y65.061 E0.69052
G1 X121.514 Y65.497 E0.70923
G1 X122.305 Y66.002 E0.72796
G1 X123.049 Y66.573 E0.74667
G1 X123.742 Y67.205 E0.76539
G1 X124.379 Y67.893 E0.7841
G1 X124.954 Y68.634 E0.80282
G1 X125.465 Y69.42 E0.82153
G1 X125.907 Y70.248 E0.84026
G1 X126.276 Y71.11 E0.85897
G1 X126.571 Y72 E0.87768
G1 X126.789 Y72.912 E0.89639
G1 X126.929 Y73.84 E0.91512
G1 X126.987 Y74.701 E0.93234
G1 X127 Y75.33 E0.9449
G1 X126.999 Y135.907 E2.15378
G1 X126.99 Y136.606 E2.16773
G1 X126.938 Y137.542 E2.18644
G1 X126.806 Y138.471 E2.20516
G1 X126.659 Y139.147 E2.21897
G1 X126.575 Y139.481 E2.22584
G1 X126.307 Y140.38 E2.24456
G1 X125.965 Y141.253 E2.26327
G1 X125.549 Y142.093 E2.28198
G1 X125.062 Y142.895 E2.3007
G1 X124.51 Y143.653 E2.31942
G1 X123.895 Y144.361 E2.33813
G1 X122.959 Y145.241 E2.36377
G1 X121.032 Y146.85 E2.41387
G1 X119.169 Y148.496 E2.46348
G1 X117.344 Y150.201 E2.51332
G1 X114.863 Y152.676 E2.58325
G1 X114.18 Y153.319 E2.60197
G1 X113.444 Y153.9 E2.62068
G1 X112.662 Y154.417 E2.63939
G1 X111.838 Y154.866 E2.65812
G1 X110.979 Y155.243 E2.67684
G1 X110.091 Y155.545 E2.69556
G1 X109.181 Y155.77 E2.71426
G1 X108.255 Y155.918 E2.73298
G1 X107.181 Y155.988 E2.75446
G1 X106.406 Y156 E2.76992
G1 X104.548 Y155.999 E2.807
G1 X103.851 Y155.989 E2.82091
G1 X102.915 Y155.935 E2.83962
G1 X101.986 Y155.802 E2.85835
G1 X101.073 Y155.591 E2.87705
G1 X100.18 Y155.302 E2.89578
G1 X99.316 Y154.939 E2.91448
G1 X98.486 Y154.503 E2.93319
G1 X97.695 Y153.998 E2.95192
G1 X96.951 Y153.427 E2.97064
G1 X96.258 Y152.795 E2.98936
G1 X95.621 Y152.106 E3.00808
G1 X95.045 Y151.366 E3.02679
G1 X94.535 Y150.579 E3.04551
G1 X94.093 Y149.752 E3.06422
G1 X93.724 Y148.89 E3.08293
G1 X93.429 Y148 E3.10165
G1 X93.211 Y147.088 E3.12036
G1 X93.071 Y146.16 E3.13909
G1 X93.013 Y145.288 E3.15653
G1 X93 Y144.658 E3.1691
G1 X93.001 Y75.509 E4.54905
G0 F6000 X93.401 Y75.515
G1 F1200 X93.411 Y74.85 E4.56232
G1 X93.465 Y73.931 E4.58069
G1 X93.598 Y73.02 E4.59906
G1 X93.81 Y72.124 E4.61744
G1 X94.099 Y71.249 E4.63583
G1 X94.463 Y70.404 E4.65419
G1 X94.898 Y69.593 E4.67255
G1 X95.403 Y68.822 E4.69094
G1 X95.972 Y68.099 E4.70931
G1 X96.602 Y67.427 E4.72769
G1 X97.288 Y66.813 E4.74606
G1 X98.024 Y66.261 E4.76442
G1 X98.806 Y65.774 E4.7828
G1 X99.627 Y65.358 E4.80117
G1 X100.481 Y65.014 E4.81954
G1 X101.361 Y64.745 E4.83791
G1 X102.262 Y64.554 E4.85629
G1 X103.176 Y64.442 E4.87466
G1 X103.712 Y64.413 E4.88538
G1 X104.33 Y64.4 E4.89771
G1 X115.293 Y64.4 E5.11649
G1 X116.143 Y64.411 E5.13345
G1 X117.062 Y64.464 E5.15182
G1 X117.973 Y64.597 E5.1702
G1 X118.869 Y64.808 E5.18857
G1 X119.743 Y65.096 E5.20693
G1 X120.59 Y65.459 E5.22532
G1 X121.401 Y65.894 E5.24369
G1 X122.171 Y66.398 E5.26205
G1 X122.895 Y66.967 E5.28043
G1 X123.567 Y67.597 E5.29881
G1 X124.182 Y68.282 E5.31718
G1 X124.735 Y69.018 E5.33555
G1 X125.222 Y69.799 E5.35392
G1 X125.639 Y70.62 E5.3723
G1 X125.984 Y71.474 E5.39068
G1 X126.253 Y72.354 E5.40904
G1 X126.445 Y73.255 E5.42742
G1 X126.558 Y74.168 E5.44578
G1 X126.587 Y74.712 E5.45665
G1 X126.6 Y75.33 E5.46899
G1 X126.599 Y135.901 E6.67775
G1 X126.59 Y136.6 E6.6917
G1 X126.538 Y137.52 E6.71009
G1 X126.407 Y138.431 E6.72846
G1 X126.271 Y139.049 E6.74108
G1 X126.187 Y139.383 E6.74796
G1 X125.924 Y140.266 E6.76634
G1 X125.585 Y141.122 E6.78472
G1 X125.173 Y141.945 E6.80308
G1 X124.692 Y142.73 E6.82146
G1 X124.144 Y143.47 E6.83983
G1 X123.534 Y144.159 E6.8582
G1 X122.702 Y144.934 E6.88089
G1 X120.795 Y146.527 E6.93047
G1 X118.894 Y148.205 E6.98108
G1 X117.072 Y149.909 E7.03086
G1 X114.577 Y152.397 E7.10117
G1 X113.906 Y153.027 E7.11954
G1 X113.182 Y153.596 E7.13792
G1 X112.412 Y154.101 E7.15629
G1 X111.601 Y154.536 E7.17466
G1 X110.755 Y154.9 E7.19304
G1 X109.881 Y155.189 E7.21141
G1 X108.985 Y155.401 E7.22978
G1 X108.075 Y155.535 E7.24814
G1 X107.174 Y155.588 E7.26615
G1 X106.406 Y155.6 E7.28148
G1 X104.554 Y155.599 E7.31844
G1 X103.857 Y155.589 E7.33235
G1 X102.938 Y155.536 E7.35072
G1 X102.027 Y155.403 E7.36909
G1 X101.131 Y155.192 E7.38746
G1 X100.256 Y154.904 E7.40585
G1 X99.41 Y154.54 E7.42422
G1 X98.599 Y154.105 E7.44259
G1 X97.828 Y153.602 E7.46096
G1 X97.104 Y153.033 E7.47934
G1 X96.433 Y152.403 E7.4977
G1 X95.818 Y151.718 E7.51608
G1 X95.265 Y150.982 E7.53445
G1 X94.778 Y150.2 E7.55283
G1 X94.361 Y149.38 E7.57119
G1 X94.016 Y148.526 E7.58957
G1 X93.747 Y147.646 E7.60793
G1 X93.555 Y146.745 E7.62632
G1 X93.442 Y145.831 E7.6447
G1 X93.413 Y145.277 E7.65577
G1 X93.4 Y144.658 E7.66812
G1 X93.401 Y75.515 E9.04795
G0 F6000 X93.801 Y75.521
G1 F1200 X93.811 Y74.856 E9.06122
G1 X93.865 Y73.954 E9.07925
G1 X93.998 Y73.061 E9.09727
G1 X94.209 Y72.183 E9.11529
G1 X94.498 Y71.327 E9.13332
G1 X94.861 Y70.5 E9.15134
G1 X95.295 Y69.709 E9.16935
G1 X95.798 Y68.958 E9.18739
G1 X96.366 Y68.256 E9.20541
G1 X96.993 Y67.606 E9.22343
G1 X97.675 Y67.014 E9.24145
G1 X98.407 Y66.485 E9.25947
G1 X99.183 Y66.023 E9.2775
G1 X99.997 Y65.632 E9.29552
G1 X100.842 Y65.313 E9.31354
G1 X101.712 Y65.071 E9.33156
G1 X102.6 Y64.907 E9.34958
G1 X103.723 Y64.813 E9.37207
G1 X104.33 Y64.8 E9.38419
G1 X115.293 Y64.8 E9.60297
G1 X116.137 Y64.811 E9.61981
G1 X117.039 Y64.864 E9.63784
G1 X117.932 Y64.996 E9.65586
G1 X118.81 Y65.207 E9.67388
G1 X119.666 Y65.495 E9.6919
G1 X120.493 Y65.857 E9.70992
G1 X121.285 Y66.292 E9.72795
G1 X122.036 Y66.794 E9.74598
G1 X122.739 Y67.361 E9.764
G1 X123.389 Y67.988 E9.78202
G1 X123.981 Y68.67 E9.80005
G1 X124.511 Y69.401 E9.81806
G1 X124.973 Y70.177 E9.83609
G1 X125.366 Y70.99 E9.85411
G1 X125.684 Y71.835 E9.87212
G1 X125.927 Y72.705 E9.89015
G1 X126.092 Y73.593 E9.90818
G1 X126.187 Y74.723 E9.93081
G1 X126.2 Y75.33 E9.94292
G1 X126.199 Y135.896 E11.15158
G1 X126.19 Y136.595 E11.16553
G1 X126.139 Y137.497 E11.18356
G1 X126.007 Y138.39 E11.20158
G1 X125.883 Y138.952 E11.21306
G1 X125.799 Y139.286 E11.21993
G1 X125.54 Y140.151 E11.23795
G1 X125.206 Y140.99 E11.25597
G1 X124.799 Y141.796 E11.27399
G1 X124.322 Y142.563 E11.29202
G1 X123.779 Y143.285 E11.31005
G1 X123.174 Y143.955 E11.32806
G1 X122.446 Y144.627 E11.34783
G1 X120.519 Y146.237 E11.39794
G1 X118.64 Y147.896 E11.44796
G1 X116.783 Y149.631 E11.49868
G1 X114.291 Y152.117 E11.56893
G1 X113.632 Y152.735 E11.58695
G1 X112.921 Y153.291 E11.60497
G1 X112.163 Y153.783 E11.623
G1 X111.365 Y154.206 E11.64102
G1 X110.533 Y154.556 E11.65904
G1 X109.673 Y154.832 E11.67706
G1 X108.792 Y155.03 E11.69508
G1 X107.897 Y155.15 E11.7131
G1 X107.167 Y155.189 E11.72769
G1 X106.579 Y155.199 E11.73943
G1 X104.56 Y155.199 E11.77972
G1 X103.863 Y155.189 E11.79363
G1 X102.961 Y155.136 E11.81166
G1 X102.068 Y155.004 E11.82967
G1 X101.19 Y154.793 E11.84769
G1 X100.334 Y154.505 E11.86572
G1 X99.506 Y154.142 E11.88376
G1 X98.715 Y153.708 E11.90177
G1 X97.964 Y153.206 E11.91979
G1 X97.261 Y152.639 E11.93782
G1 X96.611 Y152.012 E11.95584
G1 X96.019 Y151.33 E11.97386
G1 X95.489 Y150.599 E11.99188
G1 X95.027 Y149.823 E12.0099
G1 X94.634 Y149.01 E12.02792
G1 X94.316 Y148.165 E12.04594
G1 X94.073 Y147.295 E12.06397
G1 X93.908 Y146.407 E12.08199
G1 X93.813 Y145.266 E12.10484
G1 X93.8 Y144.658 E12.11698
G1 X93.801 Y75.521 E13.49668
G1 F1500 E6.99668
;MESH:GAPS_module_frame_leg v4.stl
G0 F6000 X103.335 Y75.521
G0 X104.42 Y75.521
G0 X105 Y144
;TYPE:WALL-INNER
G1 F1500 E13.49668
G1 F1200 X106.498 Y144 E13.52657
G1 X109 Y140.665 E13.60977
G1 X109 Y137 E13.68291
G1 X109.03 Y136.753 E13.68788
G1 X109.117 Y136.529 E13.69267
G1 X109.246 Y136.342 E13.69721
G1 X109.561 Y136.101 E13.70512
G1 X109.905 Y136 E13.71228
G1 X115 Y136 E13.81395
G1 X115 Y81 E14.91154
G1 X115 Y76 E15.01132
G1 X105 Y76 E15.21088
G1 X105 Y144 E16.56789
G0 F6000 X104.6 Y144.4
G1 F1200 X106.698 Y144.4 E16.60976
G1 X109.4 Y140.799 E16.6996
G1 X109.4 Y136.886 E16.77769
G1 X109.547 Y136.605 E16.78402
G1 X109.736 Y136.46 E16.78877
G1 X109.92 Y136.405 E16.79261
G1 X115.4 Y136.4 E16.90197
G1 X115.4 Y81 E18.00753
G1 X115.4 Y75.6 E18.11529
G1 X104.6 Y75.6 E18.33082
G1 X104.6 Y144.4 E19.7038
G0 F6000 X104.2 Y144.8
;TYPE:WALL-OUTER
G1 F1200 X106.898 Y144.8 E19.75764
G1 X109.8 Y140.932 E19.85414
G1 X109.8 Y136.966 E19.93329
G1 X109.88 Y136.84 E19.93626
G1 X109.954 Y136.801 E19.93793
G1 X115.545 Y136.799 E20.04951
G1 X115.718 Y136.701 E20.05348
G1 X115.8 Y136.473 E20.05831
G1 X115.8 Y81 E21.16533
G1 X115.8 Y75.2 E21.28108
G1 X104.2 Y75.2 E21.51257
G1 X104.2 Y144.8 E22.90151
G0 F6000 X104.47 Y144.53
G0 X105.1 Y143.639
G0 X105.361 Y143.639
;TYPE:SKIN
G1 F1200 X106.316 Y143.639 E22.92057
G1 X108.64 Y140.544 E22.99781
G1 X108.641 Y136.982 E23.06889
G1 X108.679 Y136.659 E23.07538
G1 X108.81 Y136.339 E23.08228
G1 X108.964 Y136.118 E23.08766
G1 X109.186 Y135.907 E23.09377
G1 X109.582 Y135.706 E23.10263
G1 X109.855 Y135.643 E23.10823
G1 X114.64 Y135.64 E23.20372
G1 X114.64 Y81 E24.29412
G1 X114.64 Y76.36 E24.38671
G1 X105.36 Y76.36 E24.5719
G1 X105.361 Y143.639 E25.91453
G0 F6000 X106.102 Y143.438
G1 F1200 X105.56 Y142.895 E25.92984
G0 F6000 X105.56 Y142.329
G1 F1200 X106.41 Y143.179 E25.95383
G0 F6000 X106.652 Y142.856
G1 F1200 X105.56 Y141.764 E25.98465
G0 F6000 X105.56 Y141.198
G1 F1200 X106.895 Y142.533 E26.02232
G0 F6000 X107.137 Y142.21
G1 F1200 X105.56 Y140.632 E26.06684
G0 F6000 X105.56 Y140.067
G1 F1200 X107.38 Y141.887 E26.11821
G0 F6000 X107.623 Y141.564
G1 F1200 X105.56 Y139.501 E26.17643
G0 F6000 X105.56 Y138.935
G1 F1200 X107.865 Y141.241 E26.2415
G0 F6000 X108.108 Y140.917
G1 F1200 X105.56 Y138.37 E26.31339
G0 F6000 X105.56 Y137.804
G1 F1200 X108.35 Y140.594 E26.39213
G0 F6000 X108.44 Y140.118
G1 F1200 X105.56 Y137.238 E26.47341
G0 F6000 X105.56 Y136.673
G1 F1200 X108.441 Y139.553 E26.55471
G0 F6000 X108.441 Y138.988
G1 F1200 X105.56 Y136.107 E26.63601
G0 F6000 X105.56 Y135.541
G1 F1200 X108.441 Y138.423 E26.71734
G0 F6000 X108.441 Y137.857
G1 F1200 X105.56 Y134.976 E26.79864
G0 F6000 X105.56 Y134.41
G1 F1200 X108.442 Y137.292 E26.87998
G0 F6000 X108.467 Y136.751
G1 F1200 X105.56 Y133.844 E26.96202
G0 F6000 X105.56 Y133.279
G1 F1200 X108.598 Y136.316 E27.04775
G0 F6000 X108.825 Y135.978
G1 F1200 X105.56 Y132.713 E27.13989
G0 F6000 X105.56 Y132.147
G1 F1200 X109.124 Y135.712 E27.24049
G0 F6000 X109.5 Y135.521
G1 F1200 X105.56 Y131.581 E27.35169
G0 F6000 X105.56 Y131.016
G1 F1200 X109.983 Y135.439 E27.47651
G0 F6000 X110.549 Y135.439
G1 F1200 X105.56 Y130.45 E27.61731
G0 F6000 X105.56 Y129.884
G1 F1200 X111.114 Y135.439 E27.77407
G0 F6000 X111.68 Y135.439
G1 F1200 X105.56 Y129.319 E27.94679
G0 F6000 X105.56 Y128.753
G1 F1200 X112.246 Y135.439 E28.13549
G0 F6000 X112.811 Y135.439
G1 F1200 X105.56 Y128.187 E28.34014
G0 F6000 X105.56 Y127.622
G1 F1200 X113.377 Y135.439 E28.56075
G0 F6000 X113.943 Y135.439
G1 F1200 X105.56 Y127.056 E28.79734
G0 F6000 X105.56 Y126.49
G1 F1200 X114.439 Y135.369 E29.04792
G0 F6000 X114.439 Y134.804
G1 F1200 X105.56 Y125.925 E29.29851
G0 F6000 X105.56 Y125.359
G1 F1200 X114.439 Y134.238 E29.54909
G0 F6000 X114.439 Y133.672
G1 F1200 X105.56 Y124.793 E29.79968
G0 F6000 X105.56 Y124.228
G1 F1200 X114.439 Y133.107 E30.05026
G0 F6000 X114.439 Y132.541
G1 F1200 X105.56 Y123.662 E30.30085
G0 F6000 X105.56 Y123.096
G1 F1200 X114.439 Y131.975 E30.55143
G0 F6000 X114.439 Y131.41
G1 F1200 X105.56 Y122.53 E30.80203
G0 F6000 X105.56 Y121.965
G1 F1200 X114.439 Y130.844 E31.05261
G0 F6000 X114.439 Y130.278
G1 F1200 X105.56 Y121.399 E31.3032
G0 F6000 X105.56 Y120.833
G1 F1200 X114.439 Y129.713 E31.5538
G0 F6000 X114.439 Y129.147
G1 F1200 X105.56 Y120.268 E31.80438
G0 F6000 X105.56 Y119.702
G1 F1200 X114.439 Y128.581 E32.05497
G0 F6000 X114.439 Y128.016
G1 F1200 X105.56 Y119.136 E32.30556
G0 F6000 X105.56 Y118.571
G1 F1200 X114.439 Y127.45 E32.55615
G0 F6000 X114.439 Y126.884
G1 F1200 X105.56 Y118.005 E32.80673
G0 F6000 X105.56 Y117.439
G1 F1200 X114.439 Y126.318 E33.05732
G0 F6000 X114.439 Y125.753
G1 F1200 X105.56 Y116.874 E33.3079
G0 F6000 X105.56 Y116.308
G1 F1200 X114.439 Y125.187 E33.55849
G0 F6000 X114.439 Y124.621
G1 F1200 X105.56 Y115.742 E33.80907
G0 F6000 X105.56 Y115.177
G1 F1200 X114.439 Y124.056 E34.05966
G0 F6000 X114.439 Y123.49
G1 F1200 X105.56 Y114.611 E34.31024
G0 F6000 X105.56 Y114.045
G1 F1200 X114.439 Y122.924 E34.56083
G0 F6000 X114.439 Y122.359
G1 F1200 X105.56 Y113.48 E34.81141
G0 F6000 X105.56 Y112.914
G1 F1200 X114.439 Y121.793 E35.06199
G0 F6000 X114.439 Y121.227
G1 F1200 X105.56 Y112.348 E35.31258
G0 F6000 X105.56 Y111.782
G1 F1200 X114.439 Y120.662 E35.56318
G0 F6000 X114.439 Y120.096
G1 F1200 X105.56 Y111.217 E35.81376
G0 F6000 X105.56 Y110.651
G1 F1200 X114.439 Y119.53 E36.06435
G0 F6000 X114.439 Y118.965
G1 F1200 X105.56 Y110.085 E36.31495
G0 F6000 X105.559 Y109.519
G1 F1200 X114.439 Y118.399 E36.56556
G0 F6000 X114.439 Y117.833
G1 F1200 X105.559 Y108.953 E36.81617
G0 F6000 X105.559 Y108.388
G1 F1200 X114.439 Y117.268 E37.06678
G0 F6000 X114.439 Y116.702
G1 F1200 X105.559 Y107.822 E37.3174
G0 F6000 X105.559 Y107.256
G1 F1200 X114.439 Y116.136 E37.56801
G0 F6000 X114.439 Y115.57
G1 F1200 X105.559 Y106.691 E37.81861
G0 F6000 X105.559 Y106.125
G1 F1200 X114.439 Y115.005 E38.06922
G0 F6000 X114.439 Y114.439
G1 F1200 X105.559 Y105.559 E38.31983
G0 F6000 X105.559 Y104.994
G1 F1200 X114.439 Y113.873 E38.57043
G0 F6000 X114.439 Y113.308
G1 F1200 X105.559 Y104.428 E38.82105
G0 F6000 X105.559 Y103.862
G1 F1200 X114.439 Y112.742 E39.07166
G0 F6000 X114.439 Y112.176
G1 F1200 X105.559 Y103.296 E39.32227
G0 F6000 X105.559 Y102.731
G1 F1200 X114.439 Y111.611 E39.57288
G0 F6000 X114.439 Y111.045
G1 F1200 X105.559 Y102.165 E39.8235
G0 F6000 X105.559 Y101.599
G1 F1200 X114.439 Y110.479 E40.07411
G0 F6000 X114.439 Y109.914
G1 F1200 X105.559 Y101.034 E40.32472
G0 F6000 X105.559 Y100.468
G1 F1200 X114.439 Y109.348 E40.57533
G0 F6000 X114.439 Y108.782
G1 F1200 X105.559 Y99.902 E40.82595
G0 F6000 X105.559 Y99.337
G1 F1200 X114.439 Y108.217 E41.07656
G0 F6000 X114.439 Y107.651
G1 F1200 X105.559 Y98.771 E41.32717
G0 F6000 X105.559 Y98.205
G1 F1200 X114.439 Y107.085 E41.57779
G0 F6000 X114.439 Y106.519
G1 F1200 X105.559 Y97.64 E41.82838
G0 F6000 X105.559 Y97.074
G1 F1200 X114.439 Y105.954 E42.079
G0 F6000 X114.439 Y105.388
G1 F1200 X105.559 Y96.508 E42.32961
G0 F6000 X105.559 Y95.943
G1 F1200 X114.439 Y104.822 E42.58021
G0 F6000 X114.439 Y104.257
G1 F1200 X105.559 Y95.377 E42.83082
G0 F6000 X105.559 Y94.811
G1 F1200 X114.439 Y103.691 E43.08143
G0 F6000 X114.439 Y103.125
G1 F1200 X105.559 Y94.246 E43.33203
G0 F6000 X105.559 Y93.68
